!!!!SEGMENT: pl-cz--iii-679--006_volckmer-augustin--missa-in-d-in-gloria-dei-patris.krn
!!!cenid: 17xx:1178
!!!COM: Volckmer, Augustin
!!!COM-rismID: pe30020656
!!!CDT: 1755-~1820
!!!CNT:
!!!OPR: Missa in D
!!!OTL: In gloria Dei patris
!!!OMV: 006
!!!PDT:
!!!AGN: Sacred; Mass
!!!SMS-siglum: PL-CZ
!!!SMS-shelfmark: III-679
!!!SMS-shelfwork: 001-006 M
!!!SMS-variant:
!!!SMS-altvar:
!!!NIFC-rismSourceID: 300001394
!!!NIFC-rismChildID: 300001394
!!!NIFC-islandoraID: pl-cz:40002
!!!URL-pdf-islandora: https://repozytorium.nifc.pl/islandora/object/pl-cz%3A40002/datastream/PDF/view
!!!URL-scan: https://polish.musicsources.pl/pl/lokalizacje/galeria/rekopisy/6978/1 @EN{Scan on Polish Music Sources Website} @PL{Skany w portalu Dziedzictwo Muzyki Polskiej w otwartym dostępie}
!!!ONB-nifc: UWAGA: części Mszy: Sinfonia, Kyrie, Gloria, Domine Deus, Cum Sancto Spiritu, In gloria Dei Patris, Credo, Et incarnatus, Et resurrexit, Sanctus, Pleni Sunt, Benedictus, Agnus Dei, Dona nobis
!!!AIN: 1 alto 1 bass 2 clrno 2 cor 2 fagot 1 flt 2 oboe 1 organ 1 soprn 1 tenor 1 timpa 2 viola 1 viole 2 violn
!!!key: D
**kern	**fba	**kern	**dynam	**kern	**dynam	**kern	**dynam	**kern	**dynam	**kern	**text	**dynam	**kern	**text	**dynam	**kern	**text	**dynam	**kern	**text	**dynam	**kern	**kern	**dynam	**kern	**dynam	**kern	**dynam	**kern	**dynam	**kern	**dynam	**kern	**dynam	**kern	**dynam	**kern	**dynam	**kern	**dynam
*part19	*part19	*part18	*part18	*part17	*part17	*part16	*part16	*part15	*part15	*part14	*part14	*part14	*part13	*part13	*part13	*part12	*part12	*part12	*part11	*part11	*part11	*part10	*part9	*part9	*part8	*part8	*part7	*part7	*part6	*part6	*part5	*part5	*part4	*part4	*part3	*part3	*part2	*part2	*part1	*part1
*staff19	*	*staff18	*	*staff17	*	*staff16	*	*staff15	*	*staff14	*staff14	*	*staff13	*staff13	*	*staff12	*staff12	*	*staff11	*staff11	*	*staff10	*staff9	*	*staff8	*	*staff7	*	*staff6	*	*staff5	*	*staff4	*	*staff3	*	*staff2	*	*staff1	*
*I"Organo. v Violone	*	*I"Viola Secundo	*	*I"Viola Primo.	*	*I"Violino Secundo	*	*I"Violino. Primo.	*	*I"Basso.	*	*	*I"Tenore.	*	*	*I"Alto.	*	*	*I"Canto.	*	*	*I"Timpano	*I"Clarino Secundo	*	*I"Clarino Primo	*	*I"Corno Secundo	*	*I"Corno Primo.	*	*I"Fagotto Secundo.	*	*I"Fagotto Primo.	*	*I"Hautbois Secundo.	*	*I"Hautbois Primo.	*	*I"Flauto.	*
*I'Org. v Vl-ne	*	*I'V-la II	*	*I'V-la I	*	*I'V-no II	*	*I'V-no I	*	*I'B.	*	*	*I'T.	*	*	*I'A.	*	*	*I'C.	*	*	*I'Timp.	*I'Cl-no II	*	*I'Cl-no I	*	*I'C. II	*	*I'C. I	*	*I'Fag. II	*	*I'Fag. I	*	*I'Ht II	*	*I'Ht I	*	*I'Fl.	*
*IGcont	*	*	*	*	*	*	*	*	*	*IGcoro	*	*	*IGcoro	*	*	*IGcoro	*	*	*IGcoro	*	*	*	*	*	*	*	*	*	*	*	*	*	*	*	*	*	*	*	*	*
*ICklav&ICstr	*	*ICstr	*	*ICstr	*	*ICstr	*	*ICstr	*	*ICvox	*	*	*ICvox	*	*	*ICvox	*	*	*ICvox	*	*	*ICidio	*ICbras	*	*ICbras	*	*ICbras	*	*ICbras	*	*ICww	*	*ICww	*	*ICww	*	*ICww	*	*ICww	*
*Iorgan&Iviole	*	*Iviola	*	*Iviola	*	*Ivioln	*	*Ivioln	*	*Ibass	*	*	*Itenor	*	*	*Ialto	*	*	*Isoprn	*	*	*Itimpa	*Iclrno	*	*Iclrno	*	*Icor	*	*Icor	*	*Ifagot	*	*Ifagot	*	*Ioboe	*	*Ioboe	*	*Iflt	*
*clefF4	*	*clefC3	*	*clefC3	*	*clefG2	*	*clefG2	*	*clefF4	*	*	*clefC4	*	*	*clefC3	*	*	*clefC1	*	*	*clefF4	*clefG2	*	*clefG2	*	*clefG2	*	*clefG2	*	*clefF4	*	*clefF4	*	*clefG2	*	*clefG2	*	*clefG2	*
*	*	*	*	*	*	*	*	*	*	*	*	*	*	*	*	*	*	*	*	*	*	*	*ITrd-1c-2	*	*ITrd-1c-2	*	*ITrd6c10	*	*ITrd6c10	*	*	*	*	*	*	*	*	*	*	*
*k[f#c#]	*	*k[f#c#]	*	*k[f#c#]	*	*k[f#c#]	*	*k[f#c#]	*	*k[f#c#]	*	*	*k[f#c#]	*	*	*k[f#c#]	*	*	*k[f#c#]	*	*	*k[f#c#]	*k[f#c#]	*	*k[f#c#]	*	*k[f#c#]	*	*k[f#c#]	*	*k[f#c#]	*	*k[f#c#]	*	*k[f#c#]	*	*k[f#c#]	*	*k[f#c#]	*
*D:	*	*D:	*	*D:	*	*D:	*	*D:	*	*D:	*	*	*D:	*	*	*D:	*	*	*D:	*	*	*D:	*D:	*	*D:	*	*D:	*	*D:	*	*D:	*	*D:	*	*D:	*	*D:	*	*D:	*
*M2/4	*	*M2/4	*	*M2/4	*	*M2/4	*	*M2/4	*	*M2/4	*	*	*M2/4	*	*	*M2/4	*	*	*M2/4	*	*	*M2/4	*M2/4	*	*M2/4	*	*M2/4	*	*M2/4	*	*M2/4	*	*M2/4	*	*M2/4	*	*M2/4	*	*M2/4	*
=1	=1	=1	=1	=1	=1	=1	=1	=1	=1	=1	=1	=1	=1	=1	=1	=1	=1	=1	=1	=1	=1	=1	=1	=1	=1	=1	=1	=1	=1	=1	=1	=1	=1	=1	=1	=1	=1	=1	=1	=1
*2\right	*	*2\right	*	*2\right	*	*2\right	*	*2\right	*	*2\right	*	*	*2\right	*	*	*2\right	*	*	*2\right	*	*	*2\right	*2\right	*	*2\right	*	*2\right	*	*2\right	*	*2\right	*	*2\right	*	*2\right	*	*2\right	*	*2\right	*
*all\right	*	*all\right	*	*all\right	*	*all\right	*	*all\right	*	*all\right	*	*	*all\right	*	*	*all\right	*	*	*all\right	*	*	*all\right	*all\right	*	*all\right	*	*all\right	*	*all\right	*	*all\right	*	*all\right	*	*all\right	*	*all\right	*	*all\right	*
!!LO:TX:t=P:problem:pauzy wielotaktowe zapisane w źródle jak przy metrum 4/4
!	!	!	!	!	!	!	!	!	!	!LO:TX:a:t=poco Moderato.	!	!all\right	!LO:TX:a:t=Poco Moderato	!	!	!	!	!	!	!	!	!LO:TX:a:t=Moderato	!	!	!LO:TX:a:t=Poco Moderato	!	!LO:TX:a:t=Moderatto	!	!	!	!LO:TX:b:t=poco Mod&colon;	!	!LO:TX:a:t=Poco Mod&colon;	!	!LO:TX:a:t=4	!	!LO:TX:a:t=4	!	!LO:TX:a:t=poco Moderato.	!
!LO:TX:a:t=Violone Solo	!	!LO:TX:a:t=poco modera&colon;	!	!LO:TX:a:t=mod&colon;	!	!LO:TX:a:t=poco moderato.	!	!LO:TX:a:t=poco Moderato	!	!LO:TX:a:t=4	!	!	!LO:TX:a:t=4	!	!	!LO:TX:a:t=4.	!	!	!LO:TX:a:t=Poco Moderato	!	!	!LO:TX:a:t=4	!LO:TX:a:t=poco Moderato	!	!LO:TX:a:t=4	!	!LO:TX:a:t=4	!	!LO:TX:a:t=poco Moderatto	!	!LO:TX:a:t=4.	!	!LO:TX:a:t=4.	!	!LO:TX:a:t=poco Moderato.	!	!LO:TX:a:t=moderato.	!	!LO:TX:a:t=4	!
!	!	!	!LO:DY:b:t=pia&colon;	!	!	!	!	!	!LO:DY:b:t=p&colon;	!LO:N:vis=00	!	!	!LO:N:vis=00	!	!LO:DY:b:t=forte	!LO:N:vis=00	!	!	!	!	!	!	!LO:N:vis=00	!	!LO:N:vis=00	!	!LO:N:vis=00	!	!LO:N:vis=00	!	!LO:N:vis=00	!	!LO:N:vis=00	!	!LO:N:vis=00	!	!LO:N:vis=00	!	!LO:N:vis=00	!
!	!	!	!	!	!	!	!	!	!	!	!	!	!	!	!	!	!	!	!	!	!	!LO:N:vis=00	!	!	!	!	!	!	!	!	!	!	!	!	!	!	!	!	!	!
8D|\L	.	8d/L	p	8d\L	p	8f#/L	.	8a\L	p	0r	.	.	0r	.	f	0r	.	.	8a\L	In	.	0r	0r	.	0r	.	0r	.	0r	.	0r	.	0r	.	0r	.	0r	.	0r	.
8F#|\	.	8d/J	.	8d\J	.	8f#/J	.	8dd\J	.	.	.	.	.	.	.	.	.	.	8dd\J	.	.	.	.	.	.	.	.	.	.	.	.	.	.	.	.	.	.	.	.	.
!	!	!	!	!	!	!LO:N:vis=4	!LO:DY:b:t=pia.	!	!	!	!	!	!	!	!	!	!	!	!	!	!	!	!	!	!	!	!	!	!	!	!	!	!	!	!	!	!	!	!	!
8A|\J	.	4A/	.	4a\	.	8e/	p	8dd\L	.	.	.	.	.	.	.	.	.	.	8dd\	glo-	.	.	.	.	.	.	.	.	.	.	.	.	.	.	.	.	.	.	.	.
8r	.	.	.	.	.	8r	.	(16cc#\L	.	.	.	.	.	.	.	.	.	.	16cc#\	-ri-	.	.	.	.	.	.	.	.	.	.	.	.	.	.	.	.	.	.	.	.
.	.	.	.	.	.	.	.	16dd\JJ)	.	.	.	.	.	.	.	.	.	.	16dd\	-a	.	.	.	.	.	.	.	.	.	.	.	.	.	.	.	.	.	.	.	.
=2	=2	=2	=2	=2	=2	=2	=2	=2	=2	=2	=2	=2	=2	=2	=2	=2	=2	=2	=2	=2	=2	=2	=2	=2	=2	=2	=2	=2	=2	=2	=2	=2	=2	=2	=2	=2	=2	=2	=2	=2
8AA|/L	.	8A/L	.	8A/L	.	16g'/LL	.	(16ee\LL	.	.	.	.	.	.	.	.	.	.	16ee\LL	de-	.	.	.	.	.	.	.	.	.	.	.	.	.	.	.	.	.	.	.	.
.	.	.	.	.	.	16g'/	.	16b\	.	.	.	.	.	.	.	.	.	.	16b\JJ	.	.	.	.	.	.	.	.	.	.	.	.	.	.	.	.	.	.	.	.	.
8C#|/	.	8c#/J	.	8c#/J	.	(16f#/	.	16a\	.	.	.	.	.	.	.	.	.	.	16a\LL	-i	.	.	.	.	.	.	.	.	.	.	.	.	.	.	.	.	.	.	.	.
.	.	.	.	.	.	16e/JJ)	.	16g\JJ)	.	.	.	.	.	.	.	.	.	.	16g\JJ	.	.	.	.	.	.	.	.	.	.	.	.	.	.	.	.	.	.	.	.	.
!	!	!LO:TX:t=P:problem:mixed beam	!	!LO:TX:t=P:problem:mixed beam	!	!	!	!	!	!	!	!	!	!	!	!	!	!	!	!	!	!	!	!	!	!	!	!	!	!	!	!	!	!	!	!	!	!	!	!
8D/	.	8d\L	.	8d\L	.	8e/L	.	8g/L	.	.	.	.	.	.	.	.	.	.	8g/	pa-	.	.	.	.	.	.	.	.	.	.	.	.	.	.	.	.	.	.	.	.
8DD/J	.	8D/J	.	8E/J	.	8d/J	.	8f#/J	.	.	.	.	.	.	.	.	.	.	8f#/	-tris	.	.	.	.	.	.	.	.	.	.	.	.	.	.	.	.	.	.	.	.
!	!	!	!	!	!	!LO:LB:g=original	!	!	!	!	!	!	!	!	!	!	!	!	!	!	!	!	!	!	!	!	!	!	!	!	!	!	!	!	!	!	!	!	!	!
=3	=3	=3	=3	=3	=3	=3	=3	=3	=3	=3	=3	=3	=3	=3	=3	=3	=3	=3	=3	=3	=3	=3	=3	=3	=3	=3	=3	=3	=3	=3	=3	=3	=3	=3	=3	=3	=3	=3	=3	=3
!	!	!LO:TX:t=P:problem:mixed beam	!	!	!	!	!	!	!	!	!	!	!	!	!	!	!	!	!	!	!	!	!	!	!	!	!	!	!	!	!	!	!	!	!	!	!	!	!	!
8G\L	.	8G/L	.	8g\L	.	8g/L	.	8b\L	.	.	.	.	.	.	.	.	.	.	8b\	de-	.	.	.	.	.	.	.	.	.	.	.	.	.	.	.	.	.	.	.	.
8E\J	.	8g\J	.	8e\J	.	8g/J	.	(16gg\L	.	.	.	.	.	.	.	.	.	.	16gg\LL	-i	.	.	.	.	.	.	.	.	.	.	.	.	.	.	.	.	.	.	.	.
.	.	.	.	.	.	.	.	16ee\JJ)	.	.	.	.	.	.	.	.	.	.	16ee\JJ	.	.	.	.	.	.	.	.	.	.	.	.	.	.	.	.	.	.	.	.	.
16A\LL	.	16a\LL	.	16a\LL	.	8e/L	.	8cc#\L	.	.	.	.	.	.	.	.	.	.	8cc#\	pa-	.	.	.	.	.	.	.	.	.	.	.	.	.	.	.	.	.	.	.	.
16G\J	.	16g\J	.	16g\J	.	.	.	.	.	.	.	.	.	.	.	.	.	.	.	.	.	.	.	.	.	.	.	.	.	.	.	.	.	.	.	.	.	.	.	.
8F#\J	.	8f#\J	.	8f#\J	.	8f#/J	.	8dd\J	.	.	.	.	.	.	.	.	.	.	8dd\	-tris	.	.	.	.	.	.	.	.	.	.	.	.	.	.	.	.	.	.	.	.
=4	=4	=4	=4	=4	=4	=4	=4	=4	=4	=4	=4	=4	=4	=4	=4	=4	=4	=4	=4	=4	=4	=4	=4	=4	=4	=4	=4	=4	=4	=4	=4	=4	=4	=4	=4	=4	=4	=4	=4	=4
!LO:TX:a:t=organo Tutti	!	!	!	!	!	!	!	!LO:TX:t=P:problem:mixed beam	!	!	!	!	!	!	!	!	!	!	!	!	!	!	!	!	!	!	!	!	!	!	!	!	!	!	!	!	!	!	!	!
8C#/L	.	16e\LL	.	16e\LL	.	(16g/LL	.	(16ee\LL	.	.	.	.	.	.	.	.	.	.	16ee\LL	a-	.	.	.	.	.	.	.	.	.	.	.	.	.	.	.	.	.	.	.	.
.	.	16c#\	.	16c#\	.	16e/)	.	16g/)	.	.	.	.	.	.	.	.	.	.	16g\JJ	.	.	.	.	.	.	.	.	.	.	.	.	.	.	.	.	.	.	.	.	.
8D/J	.	16d\	.	16d\	.	(16e/	.	(16g/	.	.	.	.	.	.	.	.	.	.	16g\LL	-men	.	.	.	.	.	.	.	.	.	.	.	.	.	.	.	.	.	.	.	.
.	.	16f#\JJ	.	16f#\JJ	.	16d/JJ)	.	16f#/JJ)	.	.	.	.	.	.	.	.	.	.	16f#\JJ	.	.	.	.	.	.	.	.	.	.	.	.	.	.	.	.	.	.	.	.	.
!	!	!	!	!LO:LB:g=original	!	!	!	!	!	!	!	!	!	!	!	!	!	!	!	!	!	!	!	!	!	!	!	!	!	!	!	!	!	!	!	!	!	!	!	!
!LO:TX:t=P:problem:mixed beam	!	!LO:TX:t=P:problem:mixed beam	!	!LO:TX:t=P:problem:mixed beam	!	!	!	!	!	!	!	!	!	!	!	!	!	!	!	!	!	!	!	!	!	!	!	!	!	!	!	!	!	!	!	!	!	!	!	!
8A\L	.	8a\L	.	8a\L	.	8d/L	.	8f#'/L	.	.	.	.	.	.	.	.	.	.	8f#/	a-	.	.	.	.	.	.	.	.	.	.	.	.	.	.	.	.	.	.	.	.
8AA/J	.	8A/J	.	8A/J	.	8c#/J	.	8e'/J	.	.	.	.	.	.	.	.	.	.	8e/	-men	.	.	.	.	.	.	.	.	.	.	.	.	.	.	.	.	.	.	.	.
=5	=5	=5	=5	=5	=5	=5	=5	=5	=5	=5	=5	=5	=5	=5	=5	=5	=5	=5	=5	=5	=5	=5	=5	=5	=5	=5	=5	=5	=5	=5	=5	=5	=5	=5	=5	=5	=5	=5	=5	=5
!	!	!	!LO:DY:b:t=for	!	!LO:DY:a	!	!LO:DY:b:t=for	!	!LO:DY:b:t=for.	!	!	!LO:DY:a:t=for&colon;	!	!	!	!	!	!LO:DY:a:t=forte	!	!	!LO:DY:a:t=for&colon;	!	!	!LO:DY:b:t=for	!	!LO:DY:b:t=for	!	!LO:DY:b:t=for	!	!LO:DY:b:t=for	!	!LO:DY:a:t=Forte	!	!LO:DY:a:t=Forte	!	!	!	!LO:DY:b:t=for&colon;	!	!LO:DY:b:t=for.
8D\L	.	8A/L	f	8d\L	f	16f#/LL	f	8a\L	f	8D/L	In	f	4A/	In	.	4f#\	In	f	8a\L	in	f	8D/L	8f#/L	f	8dd\L	f	8d\L	f	8f#\L	f	8D\L	f	8D\L	f	8dd\L	.	8ff#\L	f	8aa\L	f
.	.	.	.	.	.	16a/	.	.	.	.	.	.	.	.	.	.	.	.	.	.	.	.	.	.	.	.	.	.	.	.	.	.	.	.	.	.	.	.	.	.
8F#\	.	8A/J	.	8d\J	.	16f#/	.	8dd\J	.	8F#/J	.	.	.	.	.	.	.	.	8dd\J	.	.	8D/	16f#/L	.	16dd\L	.	8d\	.	8f#\	.	8F#\	.	8F#\	.	8dd\	.	8ff#\	.	8ddd\J	.
.	.	.	.	.	.	16a/JJ	.	.	.	.	.	.	.	.	.	.	.	.	.	.	.	.	16f#/JJ	.	16dd\J	.	.	.	.	.	.	.	.	.	.	.	.	.	.	.
!	!	!	!	!	!	!	!	!	!	!	!	!	!	!	!	!	!	!	!LO:LB:g=original	!	!	!	!	!	!	!	!	!	!	!	!	!	!	!	!	!	!	!	!	!
8A\J	.	4A/	.	4e\	.	8e/	.	8dd\L	.	8A\	glo-	.	8A/	glo-	.	8e\	glo-	.	8dd\	glo-	.	8AA/J	8a/	.	8ee\J	.	8A\J	.	8e\J	.	8A\J	.	8A\J	.	8cc#\J	.	8ee\J	.	8ddd\L	.
8r	.	.	.	.	.	8r	.	(16cc#\L	.	16C#/	-ri-	.	16A/	-ri-	.	16e\	-ri-	.	16cc#\	-ri-	.	8r	8r	.	8r	.	8r	.	8r	.	8r	.	8r	.	8r	.	8r	.	16ccc#\L	.
.	.	.	.	.	.	.	.	16dd\JJ)	.	16D/	-a	.	16A/	-a	.	16e\	-a	.	16dd\	-a	.	.	.	.	.	.	.	.	.	.	.	.	.	.	.	.	.	.	16ddd\JJ	.
=6	=6	=6	=6	=6	=6	=6	=6	=6	=6	=6	=6	=6	=6	=6	=6	=6	=6	=6	=6	=6	=6	=6	=6	=6	=6	=6	=6	=6	=6	=6	=6	=6	=6	=6	=6	=6	=6	=6	=6	=6
8AA/L	.	8c#\L	.	8e\L	.	16g|/LL	.	16ee\LL	.	8C#/	de-	.	8c#\	De-	.	8g\	De-	.	16ee\LL	de-	.	8AA/L	8a/L	.	8ee\L	.	8A\L	.	8e\L	.	8AA/L	.	8AA/L	.	8ee\L	.	8gg\L	.	(16eee\LL	.
.	.	.	.	.	.	(16g/	.	(16b\	.	.	.	.	.	.	.	.	.	.	16b\JJ	.	.	.	.	.	.	.	.	.	.	.	.	.	.	.	.	.	.	.	16bb\	.
8C#/	.	8c#\	.	8e\	.	16f#/)	.	16a\	.	8AA/	-i	.	8c#\	-i	.	16f#\LL	-i	.	16a\LL	-i	.	16AA/L	16a/L	.	16ee\L	.	8A\	.	8e\	.	8C#/	.	8C#/	.	8ee\	.	8gg\	.	16aa\	.
.	.	.	.	.	.	16e/JJ	.	16g\JJ)	.	.	.	.	.	.	.	16e\JJ	.	.	16g\JJ	.	.	16AA/JJ	16a/JJ	.	16ee\JJ	.	.	.	.	.	.	.	.	.	.	.	.	.	16gg\JJ)	.
!	!	!	!	!	!	!	!	!	!	!	!	!	!	!	!	!	!	!	!	!	!	!	!LO:TX:t=P:problem:mixed beam	!	!	!	!	!	!	!	!	!	!	!	!	!	!	!	!	!
8D/	.	8c#\	.	8e\	.	8e/L	.	8g'/L	.	8D/	pa-	.	8c#\	pa-	.	8e\	Pa-	.	8g/	pa-	.	8AA/L	8a/L	.	8ee\L	.	8e\	.	8g\	.	8D/	.	8D/	.	8ee\	.	8gg\	.	8gg|\L	.
8DD/J	.	8d\J	.	8f#\J	.	8d/J	.	8f#'/J	.	8D/	-tris	.	8d\	-tris	.	8d\	-tris	.	8f#/	-tris	.	8D/J	8dd/J	.	8ff#\J	.	8d\J	.	8f#\J	.	8DD/J	.	8DD/J	.	8dd\J	.	8ff#\J	.	8ff#'\J	.
=7	=7	=7	=7	=7	=7	=7	=7	=7	=7	=7	=7	=7	=7	=7	=7	=7	=7	=7	=7	=7	=7	=7	=7	=7	=7	=7	=7	=7	=7	=7	=7	=7	=7	=7	=7	=7	=7	=7	=7	=7
*	*	*	*	*	*	*	*	*	*	*	*	*	*	*ij	*	*	*	*	*	*	*	*	*	*	*	*	*	*	*	*	*	*	*	*	*	*	*	*	*	*
8G\L	.	8d\L	.	8d\L	.	8g/L	.	8b\L	.	8G\	de-	.	8d\	De-	.	8g\	de-	.	8b\	de-	.	4r	4r	.	4r	.	8D/	.	8d\	.	8G\L	.	8G\L	.	8b\	.	8ee\	.	8bb\L	.
8E\J	.	8d\	.	8b\	.	8g/J	.	16gg\L	.	8E\	-i	.	16e\LL	-i	.	8g\	-i	.	16gg\LL	-i	.	.	.	.	.	.	8r	.	8r	.	8E\J	.	8E\J	.	8r	.	8r	.	8eee\	.
.	.	.	.	.	.	.	.	16ee\JJ	.	.	.	.	16c#\JJ	.	.	.	.	.	16ee\JJ	.	.	.	.	.	.	.	.	.	.	.	.	.	.	.	.	.	.	.	.	.
16A\LL	.	8c#\	.	8a\	.	8e/L	.	8cc#\L	.	16A\LL	pa-	.	8A/	Pa-	.	8e\	pa-	.	8cc#\	pa-	.	8AA/L	8a/L	.	8ee\L	.	8A\L	.	8e\L	.	16A\LL	.	16A\LL	.	8cc#\L	.	8ee\L	.	8ccc#\	.
16G\J	.	.	.	.	.	.	.	.	.	16G\JJ	.	.	.	.	.	.	.	.	.	.	.	.	.	.	.	.	.	.	.	.	16G\J	.	16G\J	.	.	.	.	.	.	.
8F#\J	.	8d\J	.	8a\J	.	8f#/J	.	8dd\J	.	8F#\	-tris	.	8A/	-tris	.	8f#\	-tris	.	8dd\	-tris	.	8D/J	8dd/J	.	8ff#\J	.	8d\J	.	8f#\J	.	8F#\J	.	8F#\J	.	8dd\J	.	8ff#\J	.	8ddd\J	.
*	*	*	*	*	*	*	*	*	*	*	*	*	*	*Xij	*	*	*	*	*	*	*	*	*	*	*	*	*	*	*	*	*	*	*	*	*	*	*	*	*	*
!LO:LB:g=original	!	!	!	!	!	!	!	!LO:LB:g=original	!	!	!	!	!	!	!	!	!	!	!	!	!	!	!	!	!	!	!	!	!	!	!	!	!	!	!	!	!	!	!	!
=8	=8	=8	=8	=8	=8	=8	=8	=8	=8	=8	=8	=8	=8	=8	=8	=8	=8	=8	=8	=8	=8	=8	=8	=8	=8	=8	=8	=8	=8	=8	=8	=8	=8	=8	=8	=8	=8	=8	=8	=8
!	!	!	!	!	!	!	!	!	!	!	!	!	!	!	!	!	!	!	!	!	!	!	!	!	!	!	!	!	!	!	!	!	!	!	!LO:TX:t=P:problem:mixed beam	!	!	!	!	!
8G\L	6	8g\L	.	8b\L	.	(16g/LL	.	(16ee\LL	.	8G\L	a-	.	8B/L	a-	.	(16g\LL	A-	.	16ee\LL	a-	.	8r	8r	.	8r	.	8r	.	8r	.	8G\L	.	8G\L	.	8ee\L	.	8gg\L	.	16eee\LL	.
.	.	.	.	.	.	16b/)	.	16gg\)	.	.	.	.	.	.	.	16b\)	.	.	16gg\	.	.	.	.	.	.	.	.	.	.	.	.	.	.	.	.	.	.	.	16ggg\	.
8A\	3	8a\	.	8a\	.	(16e/	.	(16cc#\	.	8A\J	.	.	8A/J	.	.	(16e\	.	.	16cc#\	.	.	8AA/L	8a/L	.	8ee\L	.	8A/L	.	8e\L	.	8A\	.	8A\	.	16g/L	.	16ee\L	.	16ccc#\	.
.	.	.	.	.	.	16g/JJ)	.	16ee\JJ)	.	.	.	.	.	.	.	16g\JJ)	.	.	16ee\JJ	.	.	.	.	.	.	.	.	.	.	.	.	.	.	.	16e/JJ	.	16cc#\JJ	.	16eee\JJ	.
8D\J	3	8a\J	.	8a\J	.	8f#/	.	8dd\	.	8D/	-men	.	8A/	-men	.	8f#\	-men	.	8dd\	-men	.	8D/J	8f#/J	.	8dd\J	.	8F#/J	.	8d\J	.	8D\J	.	8D\J	.	8f#/	.	8dd\	.	8ddd\	.
8r	.	8r	.	8r	.	8r	p	8r	.	8r	.	.	8r	.	.	8r	.	.	8r	.	.	8r	8r	.	8r	.	8r	.	8r	.	8r	.	8r	.	8r	.	8r	.	8r	.
!	!	!LO:LB:g=original	!	!	!	!	!	!	!	!	!	!	!	!	!	!	!	!	!	!	!	!	!	!	!	!	!	!	!	!	!	!	!	!	!	!	!	!	!	!
=9	=9	=9	=9	=9	=9	=9	=9	=9	=9	=9	=9	=9	=9	=9	=9	=9	=9	=9	=9	=9	=9	=9	=9	=9	=9	=9	=9	=9	=9	=9	=9	=9	=9	=9	=9	=9	=9	=9	=9	=9
!LO:TX:a:t=2	!	!LO:TX:a:t=2	!	!LO:TX:a:t=2	!	!LO:TX:a:i:t=dolce	!	!	!	!LO:TX:a:t=5	!	!	!LO:TX:a:t=5	!	!	!LO:TX:a:t=2.	!	!	!LO:TX:a:i:t=dolce	!	!	!LO:TX:a:t=6	!LO:TX:a:t=5	!	!LO:TX:a:t=5	!	!LO:TX:a:t=2	!	!LO:TX:a:t=2	!	!LO:TX:a:t=5.	!	!LO:TX:a:t=5.	!	!LO:TX:a:t=5	!	!LO:TX:a:t=5	!	!LO:TX:a:t=5	!
!	!	!	!	!	!	!	!	!	!	!	!	!	!	!	!	!LO:N:vis=0	!	!	!	!	!	!LO:N:vis=00	!	!	!	!	!	!	!	!	!	!	!	!	!	!	!	!	!	!
!	!	!	!	!	!	!	!	!	!LO:DY:b:t=p&colon;	!LO:N:vis=00	!	!	!LO:N:vis=00	!	!	!LO:TX:a:i:t=dolce	!	!	!	!	!	!	!	!	!	!	!LO:N:vis=00	!	!LO:N:vis=00	!	!LO:N:vis=00	!	!LO:N:vis=00	!	!LO:N:vis=00	!	!LO:N:vis=00	!	!LO:N:vis=00	!
1r	.	1r	.	1r	.	(16d/LL	.	16ff#\LL	p	0r	.	.	0r	.	.	1r	.	.	16ff#\LL	a-	.	0r	0r	.	0r	.	1r	.	1r	.	0r	.	0r	.	0r	.	0r	.	0r	.
!	!	!	!	!	!	!	!	!LO:TX:b:i:t=Dol.	!	!	!	!	!	!	!	!	!	!	!	!	!	!	!	!	!	!	!	!	!	!	!	!	!	!	!	!	!	!	!	!
.	.	.	.	.	.	16a/)	.	(32ee\L	.	.	.	.	.	.	.	.	.	.	32ee\L	.	.	.	.	.	.	.	.	.	.	.	.	.	.	.	.	.	.	.	.	.
.	.	.	.	.	.	.	.	32ff#\JJJ)	.	.	.	.	.	.	.	.	.	.	32ff#\JJJ	.	.	.	.	.	.	.	.	.	.	.	.	.	.	.	.	.	.	.	.	.
.	.	.	.	.	.	(16d/	.	(16gg\LL	.	.	.	.	.	.	.	.	.	.	(16gg\LL	.	.	.	.	.	.	.	.	.	.	.	.	.	.	.	.	.	.	.	.	.
.	.	.	.	.	.	16a/JJ)	.	16ff#\JJ)	.	.	.	.	.	.	.	.	.	.	16ff#\JJ)	.	.	.	.	.	.	.	.	.	.	.	.	.	.	.	.	.	.	.	.	.
.	.	.	.	.	.	(16c#/LL	.	(16ff#\LL	.	.	.	.	.	.	.	.	.	.	(16ff#\LL	-men	.	.	.	.	.	.	.	.	.	.	.	.	.	.	.	.	.	.	.	.
.	.	.	.	.	.	16a/)	.	16ee\J)	.	.	.	.	.	.	.	.	.	.	16ee\JJ)	.	.	.	.	.	.	.	.	.	.	.	.	.	.	.	.	.	.	.	.	.
.	.	.	.	.	.	(16c#/	.	8ee'\J	.	.	.	.	.	.	.	.	.	.	8ee'\	.	.	.	.	.	.	.	.	.	.	.	.	.	.	.	.	.	.	.	.	.
.	.	.	.	.	.	16a/JJ)	.	.	.	.	.	.	.	.	.	.	.	.	.	.	.	.	.	.	.	.	.	.	.	.	.	.	.	.	.	.	.	.	.	.
=10	=10	=10	=10	=10	=10	=10	=10	=10	=10	=10	=10	=10	=10	=10	=10	=10	=10	=10	=10	=10	=10	=10	=10	=10	=10	=10	=10	=10	=10	=10	=10	=10	=10	=10	=10	=10	=10	=10	=10	=10
.	.	.	.	.	.	(16g#X/LL	.	16dd\LL	.	.	.	.	.	.	.	.	.	.	(16dd\LL	a-	.	.	.	.	.	.	.	.	.	.	.	.	.	.	.	.	.	.	.	.
.	.	.	.	.	.	16e/)	.	(32ee\L	.	.	.	.	.	.	.	.	.	.	32ee\L	.	.	.	.	.	.	.	.	.	.	.	.	.	.	.	.	.	.	.	.	.
.	.	.	.	.	.	.	.	32ff#\JJJ)	.	.	.	.	.	.	.	.	.	.	32ff#\JJJ)	.	.	.	.	.	.	.	.	.	.	.	.	.	.	.	.	.	.	.	.	.
.	.	.	.	.	.	(16g#/	.	16ee\LL	.	.	.	.	.	.	.	.	.	.	16ee\LL	.	.	.	.	.	.	.	.	.	.	.	.	.	.	.	.	.	.	.	.	.
.	.	.	.	.	.	16e/JJ)	.	16dd\JJ	.	.	.	.	.	.	.	.	.	.	16dd\JJ	.	.	.	.	.	.	.	.	.	.	.	.	.	.	.	.	.	.	.	.	.
!	!	!	!	!	!	!	!	!	!	!	!	!	!	!	!	!	!	!	!LO:LB:g=original	!	!	!	!	!	!	!	!	!	!	!	!	!	!	!	!	!	!	!	!	!
.	.	.	.	.	.	(16g#/LL	.	8dd\L	.	.	.	.	.	.	.	.	.	.	8dd\	.	.	.	.	.	.	.	.	.	.	.	.	.	.	.	.	.	.	.	.	.
.	.	.	.	.	.	16e/J)	.	.	.	.	.	.	.	.	.	.	.	.	.	.	.	.	.	.	.	.	.	.	.	.	.	.	.	.	.	.	.	.	.	.
.	.	.	.	.	.	8a|/J	.	8cc#\J	.	.	.	.	.	.	.	.	.	.	8cc#\	-men	.	.	.	.	.	.	.	.	.	.	.	.	.	.	.	.	.	.	.	.
=11	=11	=11	=11	=11	=11	=11	=11	=11	=11	=11	=11	=11	=11	=11	=11	=11	=11	=11	=11	=11	=11	=11	=11	=11	=11	=11	=11	=11	=11	=11	=11	=11	=11	=11	=11	=11	=11	=11	=11	=11
!LO:TX:a:t=Violone	!	!	!LO:DY:b:t=p&colon;	!	!	!	!	!	!	!	!	!	!	!	!	!	!	!	!	!	!	!	!	!	!	!	!	!	!	!	!	!	!	!	!	!	!	!	!	!
8A\	.	4a\	p	4a\	p	16cc#\LL	.	(16ee\LL	.	.	.	.	.	.	.	(16cc#\LL	a-	.	(16ee\LL	a-	.	.	.	.	.	.	4r	.	4r	.	.	.	.	.	.	.	.	.	.	.
.	.	.	.	.	.	(16b\	.	16dd\	.	.	.	.	.	.	.	16b\	.	.	16dd\	.	.	.	.	.	.	.	.	.	.	.	.	.	.	.	.	.	.	.	.	.
8r	.	.	.	.	.	16a\	.	16cc#\	.	.	.	.	.	.	.	16a\	.	.	16cc#\	.	.	.	.	.	.	.	.	.	.	.	.	.	.	.	.	.	.	.	.	.
.	.	.	.	.	.	16b\JJ)	.	16dd\JJ)	.	.	.	.	.	.	.	16b\JJ)	.	.	16dd\JJ)	.	.	.	.	.	.	.	.	.	.	.	.	.	.	.	.	.	.	.	.	.
!	!	!	!	!	!	!	!	!	!	!	!	!	!	!	!	!LO:LB:g=original	!	!	!	!	!	!	!	!	!	!	!	!LO:DY:b:t=pia	!	!LO:DY:b:t=pia	!	!	!	!	!	!	!	!	!	!
8AA/	.	4A/	.	4A/	.	8cc#\L	.	8ee\L	.	.	.	.	.	.	.	8cc#\	.	.	8ee\	.	.	.	.	.	.	.	8AA/L	p	8A/L	p	.	.	.	.	.	.	.	.	.	.
8r	.	.	.	.	.	8cc#\J	.	8ee\J	.	.	.	.	.	.	.	8cc#\	-men	.	8ee\	-men	.	.	.	.	.	.	8AA/J	.	8A/J	.	.	.	.	.	.	.	.	.	.	.
!	!	!	!	!	!	!LO:LB:g=original	!	!	!	!	!	!	!	!	!	!	!	!	!	!	!	!	!	!	!	!	!	!	!	!	!	!	!	!	!	!	!	!	!	!
=12	=12	=12	=12	=12	=12	=12	=12	=12	=12	=12	=12	=12	=12	=12	=12	=12	=12	=12	=12	=12	=12	=12	=12	=12	=12	=12	=12	=12	=12	=12	=12	=12	=12	=12	=12	=12	=12	=12	=12	=12
8A\	.	4a\	.	4a\	.	(16cc#\LL	.	(16ee\LL	.	.	.	.	.	.	.	(16cc#\LL	a-	.	(16ee\LL	a-	.	.	.	.	.	.	4r	.	4r	.	.	.	.	.	.	.	.	.	.	.
.	.	.	.	.	.	16b\	.	16dd\	.	.	.	.	.	.	.	16b\	.	.	16dd\	.	.	.	.	.	.	.	.	.	.	.	.	.	.	.	.	.	.	.	.	.
8r	.	.	.	.	.	16a\	.	16cc#\	.	.	.	.	.	.	.	16a\	.	.	16cc#\	.	.	.	.	.	.	.	.	.	.	.	.	.	.	.	.	.	.	.	.	.
.	.	.	.	.	.	16b\JJ)	.	16dd\JJ)	.	.	.	.	.	.	.	16b\JJ)	.	.	16dd\JJ)	.	.	.	.	.	.	.	.	.	.	.	.	.	.	.	.	.	.	.	.	.
8AA/	.	4A/	.	4A/	.	8cc#\L	.	8ee\L	.	.	.	.	.	.	.	8cc#\	.	.	8ee\	-men	.	.	.	.	.	.	8AA/L	.	8A/L	.	.	.	.	.	.	.	.	.	.	.
8r	.	.	.	.	.	8cc#\J	.	8ee\J	.	.	.	.	.	.	.	8cc#\	-men	.	8ee\	.	.	.	.	.	.	.	8AA/J	.	8A/J	.	.	.	.	.	.	.	.	.	.	.
=13	=13	=13	=13	=13	=13	=13	=13	=13	=13	=13	=13	=13	=13	=13	=13	=13	=13	=13	=13	=13	=13	=13	=13	=13	=13	=13	=13	=13	=13	=13	=13	=13	=13	=13	=13	=13	=13	=13	=13	=13
!	!	!	!	!	!	!	!	!LO:TX:t=P:problem:zapis niejednoznaczny	!	!	!	!	!	!	!	!	!	!	!	!	!	!	!	!	!	!	!	!	!	!	!	!	!	!	!	!	!	!	!	!
8D|\L	.	8d\L	.	8d|\L	.	8dd\L	.	(16ff#\LL	.	2r	.	.	2r	.	.	4dd\	a-	.	(16ff#\LL	a-	.	1r	2r	.	2r	.	8D/	.	8d\	.	2r	.	2r	.	2r	.	2r	.	2r	.
.	.	.	.	.	.	.	.	16gg#X\)	.	.	.	.	.	.	.	.	.	.	16gg#X\	.	.	.	.	.	.	.	.	.	.	.	.	.	.	.	.	.	.	.	.	.
8D|\	.	8d\	.	8d|\	.	(16ff#\L	.	16aa'\	.	.	.	.	.	.	.	.	.	.	16aa\	.	.	.	.	.	.	.	8r	.	8r	.	.	.	.	.	.	.	.	.	.	.
.	.	.	.	.	.	16dd\JJ)	.	16ff#'\JJ	.	.	.	.	.	.	.	.	.	.	16ff#\JJ)	.	.	.	.	.	.	.	.	.	.	.	.	.	.	.	.	.	.	.	.	.
8E|\	.	8e\	.	8e|\	.	16cc#\LL	.	16ee|\LL	.	.	.	.	.	.	.	(16cc#\LL	.	.	16ee'\LL	.	.	.	.	.	.	.	8e\L	.	8e\L	.	.	.	.	.	.	.	.	.	.	.
.	.	.	.	.	.	16b\	.	16dd|\	.	.	.	.	.	.	.	16b\	.	.	16dd'\	.	.	.	.	.	.	.	.	.	.	.	.	.	.	.	.	.	.	.	.	.
8E|\J	.	8e\J	.	8e|\J	.	(16a\	.	16cc#|\	.	.	.	.	.	.	.	16a\	.	.	16cc#'\	.	.	.	.	.	.	.	8e\J	.	8e\J	.	.	.	.	.	.	.	.	.	.	.
.	.	.	.	.	.	16g#X\JJ)	.	16b|\JJ	.	.	.	.	.	.	.	16g#X\JJ)	.	.	16b'\JJ	.	.	.	.	.	.	.	.	.	.	.	.	.	.	.	.	.	.	.	.	.
!	!	!	!	!	!	!	!	!	!	!	!	!	!	!	!	!	!	!	!	!	!	!	!	!	!	!	!	!	!	!	!	!	!	!	!LO:LB:g=original	!	!	!	!	!
=14	=14	=14	=14	=14	=14	=14	=14	=14	=14	=14	=14	=14	=14	=14	=14	=14	=14	=14	=14	=14	=14	=14	=14	=14	=14	=14	=14	=14	=14	=14	=14	=14	=14	=14	=14	=14	=14	=14	=14	=14
!	!	!	!	!	!	!	!	!	!	!	!	!	!	!	!LO:DY:a:t=forte	!	!	!	!	!	!	!	!	!	!	!	!	!	!	!	!	!	!	!	!	!	!	!	!	!
8AA/	.	8c#/	.	8e\	.	8A/ 8e 8a	.	8a/	.	4r	.	.	4r	.	f	8a\	-men	.	8a\	-men	.	.	4r	.	4r	.	8A/	.	8e\	.	4r	.	4r	.	4r	.	4r	.	4r	.
!	!	!	!	!	!	!	!LO:DY:b:t=for.	!	!	!	!	!	!	!	!	!	!	!	!	!	!	!	!	!	!	!	!	!	!	!	!	!	!	!	!	!	!	!	!	!
8r	.	8r	.	8r	.	8r	f	8r	.	.	.	.	.	.	.	8r	.	.	8r	.	.	.	.	.	.	.	8r	.	8r	.	.	.	.	.	.	.	.	.	.	.
!LO:TX:b:t=organo	!	!	!LO:DY:a:t=for	!	!LO:DY:b:t=f&colon;	!	!	!	!	!	!	!LO:DY:a:t=for	!	!	!	!	!	!LO:DY:a:t=for	!	!	!LO:DY:a:t=for	!	!	!LO:DY:b:t=for	!	!LO:DY:b:t=for	!	!LO:DY:b:t=for	!	!LO:DY:b:t=for	!	!	!	!	!	!LO:DY:b:t=for.	!	!LO:DY:b:t=for	!	!LO:DY:b:t=for
16G#X\LL	5_ 3_	32B\LLL	f	16B/LL	f	16b/LL	.	(16dd\LL	.	(8E\L	a-	f	8B\L	a-	.	[4e\	a-	f	(16dd\LL	a-	f	.	8ee\	f	8ee\	f	16e\LL	f	8e\L	f	16G#X\LL	.	(16G#X\LL	.	8b\L	f	8ddT\L	f	(32dd\LLL	f
.	.	32B\	.	.	.	.	.	.	.	.	.	.	.	.	.	.	.	.	.	.	.	.	.	.	.	.	.	.	.	.	.	.	.	.	.	.	.	.	32ee\	.
16E\	.	32e\	.	(32A/L	.	16g#X/	.	32cc#\L	.	.	.	.	.	.	.	.	.	.	32cc#\L	.	.	.	.	.	.	.	16e\J	.	.	.	16E\	.	16E\	.	.	.	.	.	32gg#X\)	.
.	.	32e\JJJ	.	32B/JJJ)	.	.	.	32dd\JJJ)	.	.	.	.	.	.	.	.	.	.	32dd\JJJ)	.	.	.	.	.	.	.	.	.	.	.	.	.	.	.	.	.	.	.	32bb\JJJ	.
!	!	!	!	!LO:N:vis=8	!	!	!	!	!	!	!	!	!	!	!	!	!	!	!	!	!	!	!	!	!	!	!	!	!	!	!	!	!	!	!	!	!	!	!	!
16G#\	.	32g#X\LLL	.	16c#/LL	.	16b/	.	16ee\LL	.	16G#X\L	.	.	(16c#\L	.	.	.	.	.	16ee\LL	.	.	.	8r	.	8r	.	8e\J	.	16e\L	.	(16G#\	.	16G#\	.	16cc#\L	.	16ee\L	.	32dd\LLL	.
.	.	32g#\	.	.	.	.	.	.	.	.	.	.	.	.	.	.	.	.	.	.	.	.	.	.	.	.	.	.	.	.	.	.	.	.	.	.	.	.	(32ee\	.
!	!	!	!	!LO:N:vis=8	!	!	!	!	!	!	!	!	!	!	!	!	!	!	!	!	!	!	!	!	!	!	!	!	!	!	!	!	!	!	!	!	!	!	!	!
16E\JJ	.	32e\	.	16B/JJ	.	16g#/JJ	.	16dd\JJ	.	16E\JJ)	.	.	16B\JJ)	.	.	.	.	.	16dd\JJ	.	.	.	.	.	.	.	.	.	16e\JJ	.	16E\JJ)	.	16E\JJ)	.	16b\JJ	.	16dd\JJ	.	32gg#X\)	.
.	.	32e\JJJ	.	.	.	.	.	.	.	.	.	.	.	.	.	.	.	.	.	.	.	.	.	.	.	.	.	.	.	.	.	.	.	.	.	.	.	.	32bb\JJJ	.
!	!	!	!	!	!	!	!	!	!	!LO:SIC:v:t=custos A	!	!	!	!	!	!	!	!	!	!	!	!	!	!	!	!	!	!	!	!	!	!	!	!	!	!	!	!	!	!
!	!	!	!	!	!	!	!	!LO:LB:g=original	!	!LO:LB:g=original	!	!	!	!	!	!	!	!	!	!	!	!	!	!	!	!	!	!	!	!	!	!	!	!	!	!	!LO:PB:g=original	!	!LO:LB:g=original	!
=15	=15	=15|:	=15	=15	=15	=15	=15	=15	=15	=15	=15	=15	=15	=15	=15	=15	=15	=15	=15	=15	=15	=15	=15	=15	=15	=15	=15	=15	=15	=15	=15	=15	=15	=15	=15	=15	=15	=15	=15	=15
!	!	!LO:TX:t=P:problem:falista linia nad taktem	!	!	!	!	!	!	!	!	!	!	!	!	!	!LO:N:xstem:cue	!	!	!	!	!	!	!	!	!	!	!	!	!	!	!	!	!	!	!	!	!	!	!	!
16A\LL	3_	32c#\LLL	.	16A/LL	.	(16cc#/LL	.	(16cc#\LL	.	16A\LL	.	.	16A\LL	.	.	8e\]	.	.	(16cc#\LL	-men	.	16AA/LL	8a/L	.	16ee\LL	.	16e\LL	.	16e\LL	.	(16A\LL	.	(16A\LL	.	16a\LL	.	(16cc#\LL	.	(32cc#\LLL	.
.	.	32c#\	.	.	.	.	.	.	.	.	.	.	.	.	.	.	.	.	.	.	.	.	.	.	.	.	.	.	.	.	.	.	.	.	.	.	.	.	32ee\	.
16E\	.	32e\	.	16c#/J	.	16a/)	.	16aa\J)	.	16E\JJ	.	.	16c#\JJ	.	.	.	.	.	16aa\JJ)	.	.	16AA/J	.	.	16ee\J	.	16e\J	.	16e\J	.	16E\)	.	16E\	.	16cc#\J	.	16aa\J)	.	32aa\)	.
.	.	32e\JJJ	.	.	.	.	.	.	.	.	.	.	.	.	.	.	.	.	.	.	.	.	.	.	.	.	.	.	.	.	.	.	.	.	.	.	.	.	32ccc#\JJJ	.
16A\	.	32a\LLL	.	8c#/J	.	(16cc#/	.	8ee\J	.	16C#/LL	-men	.	8c#\	-men	.	8e\	-men	.	8ee\	.	.	8AA/J	16a/L	.	8ee\J	.	8e\J	.	8e\J	.	16A\	.	16A\	.	8cc#\J	.	8ee\J	.	(32cc#\LLL	.
.	.	32a\	.	.	.	.	.	.	.	.	.	.	.	.	.	.	.	.	.	.	.	.	.	.	.	.	.	.	.	.	.	.	.	.	.	.	.	.	32ee\	.
16E\JJ	X	32e\	.	.	.	16a/JJ)	.	.	.	16AA/JJ	.	.	.	.	.	.	.	.	.	.	.	.	16a/JJ	.	.	.	.	.	.	.	16E\JJ	.	16E\JJ)	.	.	.	.	.	32aa\)	.
.	.	32e\JJJ	.	.	.	.	.	.	.	.	.	.	.	.	.	.	.	.	.	.	.	.	.	.	.	.	.	.	.	.	.	.	.	.	.	.	.	.	32ccc#\JJJ	.
!	!	!	!	!	!	!	!	!	!	!	!	!	!	!	!	!	!	!	!	!	!	!	!	!	!	!	!	!	!	!	!	!	!LO:LB:g=original	!	!	!	!	!	!	!
*	*	*	*	*	*	*	*	*	*	*	*	*	*	*	*	*	*ij	*	*	*	*	*	*	*	*	*	*	*	*	*	*	*	*	*	*	*	*	*	*	*
16G#X\LL	.	32B\LLL	.	16B/LL	.	(16b/LL	.	16dd\LL	.	8E\L	a-	.	8B\L	a-	.	[4e\	a-	.	16dd\LL	a-	.	4r	8ee\	.	8ee\	.	16e\LL	.	16e\LL	.	(16G#X\LL	.	(16G#X\LL	.	8b|\L	.	8ddT\L	.	(32dd\LLL	.
.	.	32B\	.	.	.	.	.	.	.	.	.	.	.	.	.	.	.	.	.	.	.	.	.	.	.	.	.	.	.	.	.	.	.	.	.	.	.	.	32ee\	.
16E\	.	32e\	.	32A/L	.	16g#X/)	.	32cc#\L	.	.	.	.	.	.	.	.	.	.	32cc#\L	.	.	.	.	.	.	.	16e\J	.	16e\J	.	16E\	.	16E\	.	.	.	.	.	32gg#X\)	.
.	.	32e\JJJ	.	32B/JJJ	.	.	.	32dd\JJJ	.	.	.	.	.	.	.	.	.	.	(32dd\JJJ	.	.	.	.	.	.	.	.	.	.	.	.	.	.	.	.	.	.	.	32bb\JJJ	.
16G#\	.	32g#X\LLL	.	16c#/LL	.	(16b/	.	16ee\LL	.	(16G#X\L	.	.	16c#\L	.	.	.	.	.	16ee\LL)	.	.	.	8r	.	8r	.	8e\J	.	8e\J	.	16G#\)	.	16G#\	.	(16cc#\L	.	(16ee\L	.	(32dd\LLL	.
.	.	32g#\	.	.	.	.	.	.	.	.	.	.	.	.	.	.	.	.	.	.	.	.	.	.	.	.	.	.	.	.	.	.	.	.	.	.	.	.	32ee\	.
16E\JJ	.	32e\	.	16B/JJ	.	16g#/JJ)	.	16dd\JJ	.	16E\JJ	.	.	16B\JJ	.	.	.	.	.	16dd\JJ	.	.	.	.	.	.	.	.	.	.	.	16E\JJ	.	16E\JJ)	.	16b\JJ)	.	16dd\JJ)	.	32gg#\)	.
.	.	32e\JJJ	.	.	.	.	.	.	.	.	.	.	.	.	.	.	.	.	.	.	.	.	.	.	.	.	.	.	.	.	.	.	.	.	.	.	.	.	32bb\JJJ	.
!	!	!	!	!LO:LB:g=original	!	!	!	!	!	!	!	!	!	!	!	!	!	!	!LO:LB:g=original	!	!	!	!	!	!LO:LB:g=original	!	!LO:LB:g=original	!	!	!	!LO:LB:g=original	!	!	!	!	!	!	!	!	!
=16	=16	=16:|	=16	=16	=16	=16	=16	=16	=16	=16	=16	=16	=16	=16	=16	=16	=16	=16	=16	=16	=16	=16	=16	=16	=16	=16	=16	=16	=16	=16	=16	=16	=16	=16	=16	=16	=16	=16	=16	=16
!	!	!LO:TX:t=P:problem:rep	!	!	!	!	!	!	!	!	!	!	!	!	!	!LO:N:xstem:cue	!	!	!	!	!	!	!	!	!	!	!	!	!	!	!	!	!	!	!	!	!	!	!	!
16A\LL	.	32c#yy\LLL	.	16A/LL	.	(16cc#/LL	.	(16cc#\LL	.	16A\LL	.	.	16A\LL	.	.	8e\]	.	.	16cc#\LL	.	.	16AA/LL	16a/LL	.	16ee\LL	.	16A/LL	.	16e\LL	.	(16A\LL	.	(16A\LL	.	(16a\LL	.	(16cc#\LL	.	(32cc#\LLL	.
.	.	32c#yy\	.	.	.	.	.	.	.	.	.	.	.	.	.	.	.	.	.	.	.	.	.	.	.	.	.	.	.	.	.	.	.	.	.	.	.	.	32ee\	.
16E\	.	32eyy\	.	16c#/J	.	16a/)	.	16aa\J)	.	16E\JJ)	.	.	16c#\JJ	.	.	.	.	.	16aa\JJ	.	.	16AA/J	16a/J	.	16ee\J	.	16A/J	.	16e\J	.	16E\	.	16E\	.	16cc#\J)	.	16aa\J)	.	32aa\)	.
.	.	32eyy\JJJ	.	.	.	.	.	.	.	.	.	.	.	.	.	.	.	.	.	.	.	.	.	.	.	.	.	.	.	.	.	.	.	.	.	.	.	.	32ccc#\JJJ	.
16A\	.	32ayy\LLL	.	8c#/J	.	(16cc#/	.	8ee\J	.	16C#/LL	-men	.	8c#\	-men	.	8e\	-men	.	8ee\	-men	.	8AA/J	8a/J	.	8ee\J	.	8A/J	.	8e\J	.	16A\)	.	16A\	.	8cc#\J	.	8ee'\J	.	(32cc#\LLL	.
.	.	32ayy\	.	.	.	.	.	.	.	.	.	.	.	.	.	.	.	.	.	.	.	.	.	.	.	.	.	.	.	.	.	.	.	.	.	.	.	.	32ee\	.
16E\JJ	.	32eyy\	.	.	.	16a/JJ)	.	.	.	16AA/JJ	.	.	.	.	.	.	.	.	.	.	.	.	.	.	.	.	.	.	.	.	16E\JJ	.	16E\JJ)	.	.	.	.	.	32aa\)	.
.	.	32eyy\JJJ	.	.	.	.	.	.	.	.	.	.	.	.	.	.	.	.	.	.	.	.	.	.	.	.	.	.	.	.	.	.	.	.	.	.	.	.	32ccc#\JJJ	.
!	!	!	!	!	!	!	!	!	!	!	!	!	!LO:LB:g=original	!	!	!	!	!	!	!	!	!	!	!	!	!	!	!	!	!	!	!	!	!	!	!	!	!	!	!
16G#X\LL	.	32Byy\LLL	.	16B/LL	.	(16b/LL	.	(16dd\LL	.	8E\L	a-	.	8B\L	a-	.	4e\	a-	.	(16dd\LL	a-	.	4r	8ee\	.	8ee\	.	8e\L	.	16e\LL	.	(16G#X\LL	.	(16G#X\LL	.	8b|\L	.	(16dd\LL	.	(32dd\LLL	.
.	.	32Byy\	.	.	.	.	.	.	.	.	.	.	.	.	.	.	.	.	.	.	.	.	.	.	.	.	.	.	.	.	.	.	.	.	.	.	.	.	32ee\	.
16E\	.	32eyy\	.	32A/L	.	16g#X/)	.	32cc#\L	.	.	.	.	.	.	.	.	.	.	32cc#\L	.	.	.	.	.	.	.	.	.	16e\J	.	16E\)	.	16E\	.	.	.	32cc#\L	.	32gg#X\)	.
.	.	32eyy\JJJ	.	32B/JJJ	.	.	.	32dd\JJJ)	.	.	.	.	.	.	.	.	.	.	32dd\JJJ)	.	.	.	.	.	.	.	.	.	.	.	.	.	.	.	.	.	32dd\JJJ)	.	32bb\JJJ	.
16G#\	.	32g#Xyy\LLL	.	16c#/LL	.	(16b/	.	16ee\LL	.	16G#X\L	.	.	16c#\L	.	.	.	.	.	16ee'\LL	.	.	.	8r	.	8r	.	16e\L	.	8e\J	.	16G#\	.	16G#\	.	(16cc#\L	.	(16ee\LL	.	(32dd\LLL	.
.	.	32g#yy\	.	.	.	.	.	.	.	.	.	.	.	.	.	.	.	.	.	.	.	.	.	.	.	.	.	.	.	.	.	.	.	.	.	.	.	.	32ee\	.
16E\JJ	.	32eyy\	.	16B/JJ	.	16g#/JJ)	.	16dd\JJ	.	16E\JJ	.	.	16B\JJ	.	.	.	.	.	16dd'\JJ	.	.	.	.	.	.	.	16e\JJ	.	.	.	16E\JJ	.	16E\JJ)	.	16b\JJ)	.	16dd\JJ)	.	32gg#\)	.
.	.	32eyy\JJJ	.	.	.	.	.	.	.	.	.	.	.	.	.	.	.	.	.	.	.	.	.	.	.	.	.	.	.	.	.	.	.	.	.	.	.	.	32bb\JJJ	.
!LO:LB:g=original	!	!	!	!	!	!	!	!	!	!	!	!	!	!	!	!	!	!	!	!	!	!	!LO:LB:g=original	!	!	!	!	!	!	!	!	!	!	!	!	!	!	!	!	!
=17|:	=17	=17	=17	=17	=17	=17	=17	=17	=17	=17	=17	=17	=17	=17	=17	=17	=17	=17	=17	=17	=17	=17	=17	=17	=17	=17	=17	=17	=17	=17	=17|:	=17	=17	=17	=17	=17	=17	=17	=17	=17
!LO:TX:t=P:problem:mixed beam	!	!LO:TX:t=P:problem:mixed beam	!	!LO:TX:t=P:problem:mixed beam	!	!	!	!	!	!	!	!	!	!	!	!	!	!	!	!	!	!	!	!	!	!	!	!	!	!	!LO:TX:t=P:problem:mixed beam	!	!LO:TX:t=P:problem:mixed beam	!	!	!	!	!	!	!
16A\LL	8_	16a\LL	.	16a\LL	.	16cc#\KL	.	16aa\KL	.	8A\L	.	.	8A\L	.	.	4a\	-men	.	4cc#\	-men	.	4AA/	4a/	.	4ee\	.	4A/	.	4e\	.	16A|\LL	.	16A|\LL	.	2cc#\	.	[2aa\	.	2ccc#\	.
16AA/	.	16A/	.	16A/	.	8cc#\	.	8aa\	.	.	.	.	.	.	.	.	.	.	.	.	.	.	.	.	.	.	.	.	.	.	16AA|/	.	16AA/	.	.	.	.	.	.	.
16A\	.	16a\	.	16a\	.	.	.	.	.	16A\L	-men	.	8e\J	.	.	.	.	.	.	.	.	.	.	.	.	.	.	.	.	.	16A|\	.	16A|\	.	.	.	.	.	.	.
16G#X\JJ	.	16g#X\JJ	.	16g#X\JJ	.	8cc#\	.	8aa\	.	16G#X\JJ	.	.	.	.	.	.	.	.	.	.	.	.	.	.	.	.	.	.	.	.	16G#X|\JJ	.	16G#X|\JJ	.	.	.	.	.	.	.
!	!	!LO:TX:t=P:problem:mixed beam	!	!LO:TX:t=P:problem:mixed beam	!	!	!	!	!	!	!	!	!	!	!	!	!	!	!	!	!	!	!	!	!	!	!	!	!	!	!LO:TX:t=P:problem:mixed beam	!	!LO:TX:t=P:problem:mixed beam	!	!	!	!	!	!	!
16F#\LL	.	16f#\LL	.	16f#\LL	.	.	.	.	.	8F#\L	a-	.	4f#\	-men	.	[4a\	a-	.	(4cc#\	a-	.	4r	4r	.	4r	.	4r	.	4r	.	16F#|\LL	.	16F#|\LL	.	.	.	.	.	.	.
16E#X\	.	16F#/	.	16F#/	.	8cc#\	.	8aa\	.	.	.	.	.	.	.	.	.	.	.	.	.	.	.	.	.	.	.	.	.	.	16FF#|/	.	16FF#|/JJ	.	.	.	.	.	.	.
16F#\	.	16f#\	.	16f#\	.	.	.	.	.	16F#\L	.	.	.	.	.	.	.	.	.	.	.	.	.	.	.	.	.	.	.	.	16F#|\	.	16F#|\LL	.	.	.	.	.	.	.
16En\JJ	.	16e\JJ	.	16e\JJ	.	16cc#\Jk	.	16aa\Jk	.	16E\JJ	.	.	.	.	.	.	.	.	.	.	.	.	.	.	.	.	.	.	.	.	16E|\JJ	.	16E|\JJ	.	.	.	.	.	.	.
=18	=18	=18	=18	=18	=18	=18	=18	=18	=18	=18	=18	=18	=18	=18	=18	=18	=18	=18	=18	=18	=18	=18	=18	=18	=18	=18	=18	=18	=18	=18	=18	=18	=18	=18	=18	=18	=18	=18	=18	=18
*	*	*	*	*	*	*	*	*	*	*	*	*	*	*ij	*	*	*	*	*	*	*	*	*	*	*	*	*	*	*	*	*	*	*	*	*	*	*	*	*	*
16D\LL	6 5	16d\LL	.	16d\LL	.	16b\KL	.	16aa\KL	.	(16D/LL	.	.	4f#\	a-	.	4a\]	.	.	4b\)	.	.	2r	4r	.	4r	.	8e\L	.	16e\LL	.	16D|\LL	.	16D\LL	.	2b\	.	4aa\]	.	2bb\	.
16C#\	.	16c#\	.	16c#\	.	8b\	.	8aa\	.	16C#/)	.	.	.	.	.	.	.	.	.	.	.	.	.	.	.	.	.	.	16e\J	.	16C#|\	.	16C#\	.	.	.	.	.	.	.
16D\	.	16d\	.	16d\	.	.	.	.	.	(16D/	.	.	.	.	.	.	.	.	.	.	.	.	.	.	.	.	16e\L	.	8e\J	.	16D|\	.	16D\	.	.	.	.	.	.	.
16BB\JJ	.	16B\JJ	.	16B\JJ	.	8b\	.	16aa\Jk	.	16BB/JJ)	.	.	.	.	.	.	.	.	.	.	.	.	.	.	.	.	16e\JJ	.	.	.	16BB|\JJ	.	16BB\JJ	.	.	.	.	.	.	.
!LO:TX:t=P:problem:mixed beam	!	!LO:TX:t=P:problem:mixed beam	!	!LO:TX:t=P:problem:mixed beam	!	!	!	!	!	!	!	!	!	!	!	!	!	!	!	!	!	!	!	!	!	!	!	!	!	!	!LO:TX:t=P:problem:mixed beam	!	!LO:TX:t=P:problem:mixed beam	!	!	!	!	!	!	!
16E\LL	n	16e\LL	.	16e\LL	.	.	.	16gg#X\KL	.	16E\LL	-men	.	4e\	-men	.	4g#X\	-men	.	4b\	-men	.	.	8ee\L	.	8ee\L	.	8e\L	.	8e\L	.	16E|\LL	.	16E\LL	.	.	.	4gg#X\	.	.	.
16D\	.	16f#\	.	16f#\	.	8b\	.	8gg#\	.	16D\J	.	.	.	.	.	.	.	.	.	.	.	.	.	.	.	.	.	.	.	.	16D|\	.	16D\	.	.	.	.	.	.	.
16E\	.	16e\	.	16e\	.	.	.	.	.	8E\J	.	.	.	.	.	.	.	.	.	.	.	.	8ee\J	.	8ee\J	.	8e\J	.	8e\J	.	16E|\	.	16E\	.	.	.	.	.	.	.
16EE/JJ	.	16E/JJ	.	16E/JJ	.	16b\Jk	.	16gg#\Jk	.	.	.	.	.	.	.	.	.	.	.	.	.	.	.	.	.	.	.	.	.	.	16EE|/JJ	.	16EE/JJ	.	.	.	.	.	.	.
!	!	!LO:LB:g=original	!	!	!	!	!	!	!	!	!	!	!	!	!	!	!	!	!	!	!	!	!	!	!	!	!	!	!	!	!	!	!	!	!	!	!	!	!	!
=19:|	=19	=19	=19	=19	=19	=19	=19	=19	=19	=19	=19	=19	=19	=19	=19	=19	=19	=19	=19	=19	=19	=19	=19	=19	=19	=19	=19	=19	=19	=19	=19:|	=19	=19	=19	=19	=19	=19	=19	=19	=19
!LO:TX:t=P:problem:rep	!	!	!	!	!	!	!	!	!	!	!	!	!	!	!	!	!	!	!	!	!	!	!	!	!	!	!	!	!	!	!LO:TX:t=P:problem:rep	!	!	!	!	!	!	!	!	!
!LO:TX:t=P:problem:mixed beam	!	!LO:TX:t=P:problem:mixed beam	!	!LO:TX:t=P:problem:mixed beam	!	!	!	!	!	!LO:TX:t=P:problem:mixed beam	!	!	!	!	!	!	!	!	!	!	!	!	!	!	!	!	!	!	!	!	!LO:TX:t=P:problem:mixed beam	!	!LO:TX:t=P:problem:mixed beam	!	!	!	!	!	!	!
*	*	*	*	*	*	*	*	*	*	*	*	*	*	*	*	*	*	*	*	*ij	*	*	*	*	*	*	*	*	*	*	*	*	*	*	*	*	*	*	*	*
16Ayy\LL	.	16a\LL	.	16a\LL	.	16cc#\KL	.	16aa\KL	.	(16A\LL	a-	.	4e\	a-	.	4a\	a-	.	4cc#\	a-	.	4AA/	4a/	.	4ee\	.	4A/	.	4e\	.	16Ayy|\LL	.	16A\LL	.	2cc#\	.	[2aa\	.	2ccc#\	.
16AAyy\	.	16A/	.	16A/	.	8cc#\	.	8aa\	.	16AA/)	.	.	.	.	.	.	.	.	.	.	.	.	.	.	.	.	.	.	.	.	16AAyy|\	.	16AA/JJ	.	.	.	.	.	.	.
16Ayy\	.	16a\	.	16a\	.	.	.	.	.	(16A\	.	.	.	.	.	.	.	.	.	.	.	.	.	.	.	.	.	.	.	.	16Ayy|\	.	16A\LL	.	.	.	.	.	.	.
16G#Xyy\JJ	.	16g#X\JJ	.	16g#X\JJ	.	8cc#\	.	8aa\	.	16G#X\JJ)	.	.	.	.	.	.	.	.	.	.	.	.	.	.	.	.	.	.	.	.	16G#Xyy|\JJ	.	16G#X\JJ	.	.	.	.	.	.	.
!	!	!LO:TX:t=P:problem:mixed beam	!	!LO:TX:t=P:problem:mixed beam	!	!	!	!	!	!	!	!	!	!	!	!	!	!	!	!	!	!	!	!	!	!	!	!	!	!	!LO:TX:t=P:problem:mixed beam	!	!LO:TX:t=P:problem:mixed beam	!	!	!	!	!	!	!
16F#yy\LL	.	16f#\LL	.	16f#\LL	.	.	.	.	.	(16F#\LL	-men	.	4f#\	-men	.	4a\	-men	.	4cc#\	-men	.	4r	4r	.	4r	.	4r	.	4r	.	16F#yy|\LL	.	16F#\LL	.	.	.	.	.	.	.
*	*	*	*	*	*	*	*	*	*	*	*	*	*	*Xij	*	*	*Xij	*	*	*Xij	*	*	*	*	*	*	*	*	*	*	*	*	*	*	*	*	*	*	*	*
16E#Xyy\	.	16F#/	.	16F#/	.	8cc#\	.	8aa\	.	16E#X\)	.	.	.	.	.	.	.	.	.	.	.	.	.	.	.	.	.	.	.	.	16FF#yy|\	.	16FF#/JJ	.	.	.	.	.	.	.
16F#yy\	.	16f#\	.	16f#\	.	.	.	.	.	(16F#\	.	.	.	.	.	.	.	.	.	.	.	.	.	.	.	.	.	.	.	.	16F#yy|\	.	16F#\LL	.	.	.	.	.	.	.
16Enyy\JJ	.	16e\JJ	.	16e\JJ	.	16cc#\Jk	.	16aa\Jk	.	16En\JJ)	.	.	.	.	.	.	.	.	.	.	.	.	.	.	.	.	.	.	.	.	16Eyy|\JJ	.	16E\JJ	.	.	.	.	.	.	.
!	!	!	!	!	!	!LO:LB:g=original	!	!	!	!	!	!	!	!	!	!	!	!	!	!	!	!	!	!	!	!	!	!	!LO:LB:g=original	!	!	!	!	!	!	!	!	!	!	!
=20	=20	=20	=20	=20	=20	=20	=20	=20	=20	=20	=20	=20	=20	=20	=20	=20	=20	=20	=20	=20	=20	=20	=20	=20	=20	=20	=20	=20	=20	=20	=20	=20	=20	=20	=20	=20	=20	=20	=20	=20
16Dyy\LL	.	16d\LL	.	16d\LL	.	16b\KL	.	16aa\KL	.	16D/LL	a-	.	4f#\	a-	.	(4a\	a-	.	2b\	a-	.	2r	4r	.	4r	.	8e\L	.	16e\LL	.	16Dyy|\LL	.	16D/LL	.	2b\	.	4aa\]	.	2bb\	.
16C#yy\	.	16c#\	.	16c#\	.	8b\	.	8aa\	.	16C#/	.	.	.	.	.	.	.	.	.	.	.	.	.	.	.	.	.	.	16e\J	.	16C#yy|\	.	16C#/	.	.	.	.	.	.	.
16Dyy\	.	16d\	.	16d\	.	.	.	.	.	16D/	.	.	.	.	.	.	.	.	.	.	.	.	.	.	.	.	16e\L	.	8e\J	.	16Dyy|\	.	16D/	.	.	.	.	.	.	.
16BByy\JJ	.	16B\JJ	.	16B\JJ	.	8b\	.	16aa\Jk	.	16BB/JJ	.	.	.	.	.	.	.	.	.	.	.	.	.	.	.	.	16e\JJ	.	.	.	16BByy|\JJ	.	16BB/JJ	.	.	.	.	.	.	.
!LO:TX:t=P:problem:mixed beam	!	!LO:TX:t=P:problem:mixed beam	!	!LO:TX:t=P:problem:mixed beam	!	!	!	!	!	!	!	!	!	!	!	!	!	!	!	!	!	!	!	!	!	!	!	!	!	!	!LO:TX:t=P:problem:mixed beam	!	!LO:TX:t=P:problem:mixed beam	!	!	!	!	!	!	!
16Eyy/LL	.	16e\LL	.	16e\LL	.	.	.	16gg#X\KL	.	8E/L	.	.	4e\	.	.	4g#X\)	.	.	.	.	.	.	8ee\L	.	8ee\L	.	8e\L	.	8e\L	.	16Eyy|\LL	.	16E\LL	.	.	.	4gg#X\	.	.	.
16Dyy/	.	16f#\	.	16f#\	.	8b\	.	8gg#\	.	.	.	.	.	.	.	.	.	.	.	.	.	.	.	.	.	.	.	.	.	.	16Dyy|\	.	16D\	.	.	.	.	.	.	.
16Eyy/	.	16e\	.	16e\	.	.	.	.	.	16D/L	.	.	.	.	.	.	.	.	.	.	.	.	8ee\J	.	8ee\J	.	8e\J	.	8e\J	.	16Eyy|\	.	16E\	.	.	.	.	.	.	.
16EEyy/JJ	.	16E/JJ	.	16E/JJ	.	16b\Jk	.	16gg#\Jk	.	16E/JJ	.	.	.	.	.	.	.	.	.	.	.	.	.	.	.	.	.	.	.	.	16EEyy|\JJ	.	16EE/JJ	.	.	.	.	.	.	.
!	!	!	!	!	!	!	!	!	!	!	!	!	!	!	!	!LO:LB:g=original	!	!	!	!	!	!	!	!	!	!	!	!	!	!	!	!	!LO:LB:g=original	!	!	!	!	!	!	!
=21	=21	=21	=21	=21	=21	=21	=21	=21	=21	=21	=21	=21	=21	=21	=21	=21	=21	=21	=21	=21	=21	=21	=21	=21	=21	=21	=21	=21	=21	=21	=21	=21	=21	=21	=21	=21	=21	=21	=21	=21
*	*	*	*	*	*	*^	*	*^	*	*	*	*	*	*	*	*	*	*	*	*	*	*	*	*	*	*	*	*	*	*	*	*	*	*	*	*	*	*	*	*
!	!	!	!	!	!	!	!	!	!	!	!	!	!	!	!	!	!	!	!	!	!	!	!	!	!	!	!	!	!	!	!	!	!LO:TX:a:t=Solo	!	!	!	!	!	!	!	!	!
!	!	!	!	!	!	!	!	!	!	!	!	!	!	!	!	!	!	!	!	!	!	!	!	!	!	!	!	!	!	!	!	!	!	!	!	!LO:DY:a:t=Piano	!	!	!LO:TX:b:t=B Solo	!	!	!
4AA/	.	4A/	.	4A/	.	4e/ 4cc#	4ryy	.	4a\ 4aa	4ryy	.	4AA/	-men	.	4e\	-men	.	4a\	-men	.	4cc#\	-men	.	4AA/	4a/	.	4ee\	.	4A/	.	4e\	.	4AA/	.	4AA/	p	4cc#\	.	4aa\	.	4aa\	.
!	!	!	!	!	!	!LO:TX:b:t=Solo.	!	!	!	!	!	!	!	!	!	!	!	!	!	!	!	!	!	!	!	!	!	!	!	!	!	!	!	!	!	!	!	!	!	!	!	!
!	!	!	!	!	!	!LO:TX:a:t=obois	!	!	!LO:TX:a:t=oboi	!	!	!	!	!	!	!	!	!	!	!	!	!	!	!	!	!	!	!	!	!	!	!	!	!	!	!	!	!	!	!	!	!
!	!	!	!	!LO:TX:b:t=Fagoto	!	!LO:TX:t=P:problem:partia oboju mniejszą czcionką	!	!	!LO:TX:t=P:problem:partia oboju mniejszą czcionką	!	!	!	!	!	!	!	!	!	!	!	!	!	!	!	!	!	!	!	!	!	!	!	!	!	!	!	!	!	!	!	!	!
*	*	*	*	*	*	*	*cue	*	*cue	*	*	*	*	*	*	*	*	*	*	*	*	*	*	*	*	*	*	*	*	*	*	*	*	*	*	*	*	*	*	*	*	*
4r	.	4r	.	4r	.	4r	8a\L	.	8cc#/L	4r	.	4r	.	.	4r	.	.	4r	.	.	4r	.	.	4r	4r	.	4r	.	4r	.	4r	.	4r	.	4r	.	8a\L	.	8cc#|\L	.	4r	.
.	.	.	.	.	.	.	8b\J	.	8dd/J	.	.	.	.	.	.	.	.	.	.	.	.	.	.	.	.	.	.	.	.	.	.	.	.	.	.	.	8b\J	.	8dd|\J	.	.	.
!	!	!	!	!	!	!	!	!	!	!	!	!LO:LB:g=original	!	!	!	!	!	!	!	!	!	!	!	!	!	!	!	!	!	!	!	!	!	!	!	!	!	!	!	!	!	!
=22	=22	=22	=22	=22	=22	=22	=22	=22	=22	=22	=22	=22	=22	=22	=22	=22	=22	=22	=22	=22	=22	=22	=22	=22	=22	=22	=22	=22	=22	=22	=22	=22	=22	=22	=22	=22	=22	=22	=22	=22	=22	=22
*	*	*	*	*^	*	*	*	*	*	*	*	*	*	*	*	*	*	*	*	*	*	*	*	*	*	*	*	*	*	*	*	*	*	*	*	*	*	*	*	*	*	*
!LO:TX:a:t=4.	!	!LO:TX:a:t=4	!	!LO:TX:t=P:problem:partia fagotu mniejszą czcionką	!	!	!LO:TX:t=P:problem:partia oboju mniejszą czcionką	!	!	!	!	!	!LO:TX:a:t=8	!	!	!	!	!	!LO:TX:a:t=4	!	!	!LO:TX:a:t=4.	!	!	!LO:TX:a:t=8	!LO:TX:a:t=8	!	!LO:TX:a:t=8	!	!LO:TX:a:t=Solo	!	!LO:TX:b:t=Solo	!	!	!	!	!	!LO:TX:b:t=Solo B.	!	!	!	!LO:TX:a:t=8	!
!	!	!LO:N:vis=00	!	!	!	!	!	!	!	!	!	!	!LO:N:vis=00	!	!	!LO:N:vis=00	!	!	!LO:N:vis=00	!	!	!LO:N:vis=00	!	!	!	!	!	!	!	!	!	!	!	!	!	!	!	!	!	!	!	!LO:N:vis=00	!
!LO:N:vis=00	!	!	!	!	!	!	!	!	!	!	!	!	!	!	!	!	!	!	!	!	!	!	!	!	!LO:N:vis=00	!LO:N:vis=00	!	!LO:N:vis=00	!	!	!	!	!	!	!	!	!	!	!	!	!	!	!
*	*	*	*	*cue	*	*	*	*	*	*	*	*	*	*	*	*	*	*	*	*	*	*	*	*	*	*	*	*	*	*	*	*	*	*	*	*	*	*	*	*	*	*	*
0r	.	0r	.	4A\	2r	.	2rb	8.cc#/L	.	(8ee/L	2r	.	0r	.	.	0r	.	.	0r	.	.	0r	.	.	0r	0r	.	0r	.	8.A\L	.	8e\L	.	8AA/	.	8AA/	.	8cc#\L	.	8.ee\L	.	0r	.
.	.	.	.	.	.	.	.	.	.	8ff#/	.	.	.	.	.	.	.	.	.	.	.	.	.	.	.	.	.	.	.	.	.	8f#\	.	8r	.	8r	.	8dd\J	.	.	.	.	.
.	.	.	.	.	.	.	.	16dd/K	.	.	.	.	.	.	.	.	.	.	.	.	.	.	.	.	.	.	.	.	.	16d\Jk	.	.	.	.	.	.	.	.	.	16ff#\Jk	.	.	.
!	!	!	!	!	!	!	!	!	!	!LO:TX:t=P:problem:partia oboju mniejszą czcionką	!	!	!	!	!	!	!	!	!	!	!	!	!	!	!	!	!	!	!	!	!	!	!	!	!	!	!	!	!	!	!	!	!
.	.	.	.	8A\L	.	.	.	8ee/	.	8.gg/)	.	.	.	.	.	.	.	.	.	.	.	.	.	.	.	.	.	.	.	8.A/L	.	8.e\	.	8AA/L	.	8AA/L	.	8.ee\L	.	8.ggn\L	.	.	.
.	.	.	.	8c#\J	.	.	.	8cc#/J	.	.	.	.	.	.	.	.	.	.	.	.	.	.	.	.	.	.	.	.	.	.	.	.	.	8C#/J	.	8C#/J	.	.	.	.	.	.	.
.	.	.	.	.	.	.	.	.	.	16ee/Jk	.	.	.	.	.	.	.	.	.	.	.	.	.	.	.	.	.	.	.	16A/Jk	.	16e\Jk	.	.	.	.	.	16cc#\Jk	.	16ee\Jk	.	.	.
!	!	!	!	!	!	!	!	!	!	!LO:LB:g=original	!LO:LB:g=original	!	!	!	!	!	!	!	!	!	!	!	!	!	!	!	!	!	!	!	!	!	!	!	!	!	!	!	!	!	!	!	!
=23	=23	=23	=23	=23	=23	=23	=23	=23	=23	=23	=23	=23	=23	=23	=23	=23	=23	=23	=23	=23	=23	=23	=23	=23	=23	=23	=23	=23	=23	=23	=23	=23	=23	=23	=23	=23	=23	=23	=23	=23	=23	=23	=23
!	!	!	!	!LO:TX:t=P:problem:partia fagotu mniejszą czcionką	!	!	!LO:TX:t=P:problem:partia oboju mniejszą czcionką	!	!	!	!	!	!	!	!	!	!	!	!	!	!	!	!	!	!	!	!	!	!	!	!	!	!	!LO:TX:t=P:problem:mixed beam	!	!LO:TX:t=P:problem:mixed beam	!	!	!	!	!	!	!
.	.	.	.	8d/L	2r	.	2ra	8dd/	.	(8ff#/L	2r	.	.	.	.	.	.	.	.	.	.	.	.	.	.	.	.	.	.	8D/	.	8d\	.	8D\L	.	8D\L	.	8dd\	.	8ff#\L	.	.	.
.	.	.	.	8f#/J	.	.	.	8r	.	8dd/)	.	.	.	.	.	.	.	.	.	.	.	.	.	.	.	.	.	.	.	8r	.	8r	.	8F#\	.	8F#\	.	8r	.	8dd\J	.	.	.
!	!	!	!	!	!	!	!	!	!	!LO:TX:t=P:problem:partia oboju mniejszą czcionką	!	!	!	!	!	!	!	!	!	!	!	!	!	!	!	!	!	!	!	!	!	!	!	!	!	!	!	!	!	!	!	!	!
.	.	.	.	8g/L	.	.	.	8g/L	.	8b/	.	.	.	.	.	.	.	.	.	.	.	.	.	.	.	.	.	.	.	8D/L	.	8d\L	.	8G\	.	8G\	.	8g/L	.	8b\L	.	.	.
.	.	.	.	8G/J	.	.	.	8g/J	.	8b/J	.	.	.	.	.	.	.	.	.	.	.	.	.	.	.	.	.	.	.	8D/J	.	8d\J	.	8GG/J	.	8GG/J	.	8g/J	.	8b\J	.	.	.
=24	=24	=24	=24	=24	=24	=24	=24	=24	=24	=24	=24	=24	=24	=24	=24	=24	=24	=24	=24	=24	=24	=24	=24	=24	=24	=24	=24	=24	=24	=24	=24	=24	=24	=24	=24	=24	=24	=24	=24	=24	=24	=24	=24
!	!	!	!	!LO:TX:t=P:problem:partia fagotu mniejszą czcionką	!	!	!LO:TX:t=P:problem:partia oboju mniejszą czcionką	!	!	!	!	!	!	!	!	!	!	!	!	!	!	!	!	!	!	!	!	!	!	!	!	!	!	!	!	!	!	!	!	!	!	!	!
.	.	.	.	8g/L	2r	.	2r	16b\LL	.	16gg/LL	2r	.	.	.	.	.	.	.	.	.	.	.	.	.	.	.	.	.	.	4r	.	4r	.	8G\L	.	8G\L	.	(16b/LL	.	(16gg\LL	.	.	.
.	.	.	.	.	.	.	.	16a\	.	16ff#/	.	.	.	.	.	.	.	.	.	.	.	.	.	.	.	.	.	.	.	.	.	.	.	.	.	.	.	16a/	.	16ff#\	.	.	.
.	.	.	.	8b/J	.	.	.	16g\	.	16ee/	.	.	.	.	.	.	.	.	.	.	.	.	.	.	.	.	.	.	.	.	.	.	.	8B\	.	8B\	.	16g/	.	16ee\	.	.	.
.	.	.	.	.	.	.	.	16f#\JJ	.	16dd/JJ	.	.	.	.	.	.	.	.	.	.	.	.	.	.	.	.	.	.	.	.	.	.	.	.	.	.	.	16f#/JJ)	.	16dd\JJ)	.	.	.
!	!	!	!	!	!	!	!	!	!	!LO:TX:t=P:problem:partia oboju mniejszą czcionką	!	!	!	!	!	!	!	!	!	!	!	!	!	!	!	!	!	!	!	!	!	!	!	!	!	!	!	!LO:TX:t=P:problem:mixed beam	!	!	!	!	!
.	.	.	.	8a/L	.	.	.	8e\L	.	8cc#'/L	.	.	.	.	.	.	.	.	.	.	.	.	.	.	.	.	.	.	.	4A/	.	4e\	.	8A\	.	8A\	.	8e/L	.	8cc#|\L	.	.	.
.	.	.	.	8d/J	.	.	.	8dd\J	.	8ff#'/J	.	.	.	.	.	.	.	.	.	.	.	.	.	.	.	.	.	.	.	.	.	.	.	8D\J	.	8D\J	.	8ee\J	.	8ff#|\J	.	.	.
!	!	!	!	!LO:LB:g=original	!LO:LB:g=original	!	!	!	!	!	!	!	!	!	!	!	!	!	!	!	!	!	!	!	!	!	!	!	!	!	!	!	!	!	!	!	!	!	!	!	!	!	!
=25	=25	=25	=25	=25	=25	=25	=25	=25	=25	=25	=25	=25	=25	=25	=25	=25	=25	=25	=25	=25	=25	=25	=25	=25	=25	=25	=25	=25	=25	=25	=25	=25	=25	=25	=25	=25	=25	=25	=25	=25	=25	=25	=25
!	!	!LO:TX:a:t=Verte	!	!LO:TX:t=P:problem:partia fagotu mniejszą czcionką	!	!	!LO:TX:t=P:problem:partia oboju mniejszą czcionką	!	!	!	!	!	!	!	!	!	!	!	!	!	!	!	!	!	!	!	!	!	!	!	!	!	!	!	!	!	!	!	!	!	!	!	!
.	.	.	.	8A/	2r	.	2r	8cc#\	.	8ee'>/	2r	.	.	.	.	.	.	.	.	.	.	.	.	.	.	.	.	.	.	8r	.	8r	.	8AA/	.	8AA/	.	8cc#|\	.	8ee\	.	.	.
.	.	.	.	8r	.	.	.	8dd/L	.	8ff#'>/L	.	.	.	.	.	.	.	.	.	.	.	.	.	.	.	.	.	.	.	8d\L	.	8f#'\L	.	8r	.	8r	.	8r	.	8r	.	.	.
!	!	!	!	!	!	!	!	!	!	!LO:TX:t=P:problem:partia corno mniejszą czcionką	!	!	!	!	!	!	!	!	!	!	!	!	!	!	!	!	!	!	!	!	!	!	!	!	!	!	!	!	!	!	!	!	!
.	.	.	.	4r	.	.	.	8cc#/J	.	8ee'>/J	.	.	.	.	.	.	.	.	.	.	.	.	.	.	.	.	.	.	.	8A\J	.	8e'\J	.	4r	.	4r	.	4r	.	4r	.	.	.
*	*	*	*	*Xcue	*	*	*	*	*	*Xcue	*	*	*	*	*	*	*	*	*	*	*	*	*	*	*	*	*	*	*	*	*	*	*	*	*	*	*	*	*	*	*	*	*
.	.	.	.	.	.	.	.	8r	.	8r	.	.	.	.	.	.	.	.	.	.	.	.	.	.	.	.	.	.	.	8r	.	8r	.	.	.	.	.	.	.	.	.	.	.
*	*	*	*	*v	*v	*	*	*	*	*v	*v	*	*	*	*	*	*	*	*	*	*	*	*	*	*	*	*	*	*	*	*	*	*	*	*	*	*	*	*	*	*	*	*
*	*	*	*	*	*	*v	*v	*	*	*	*	*	*	*	*	*	*	*	*	*	*	*	*	*	*	*	*	*	*	*	*	*	*	*	*	*	*	*	*	*	*
!	!	!LO:PB:g=original	!	!	!	!	!	!	!	!	!	!	!	!	!	!	!	!	!	!	!	!	!	!	!	!	!	!	!	!	!	!	!	!	!	!	!	!	!	!
=26	=26	=26	=26	=26	=26	=26	=26	=26	=26	=26	=26	=26	=26	=26	=26	=26	=26	=26	=26	=26	=26	=26	=26	=26	=26	=26	=26	=26	=26	=26	=26	=26	=26	=26	=26	=26	=26	=26	=26	=26
!LO:TX:b:t=Violone S	!	!	!LO:DY:b:t=p&colon;	!	!	!	!LO:DY:b:t=pia	!	!LO:DY:b:t=pia.	!LO:N:vis=00	!	!	!LO:N:vis=00	!	!	!	!	!LO:DY:a:t=for	!LO:TX:a:i:t=dolce	!	!	!	!	!	!	!	!LO:TX:a:t=4	!	!LO:TX:a:t=4	!	!LO:TX:a:t=4.	!	!LO:TX:a:t=4.	!	!	!	!LO:TX:a:t=4	!	!	!
!	!	!	!	!	!	!	!	!	!	!	!	!	!	!	!	!	!	!	!	!	!	!LO:N:vis=00	!LO:N:vis=00	!	!LO:N:vis=00	!	!LO:N:vis=00	!	!LO:N:vis=00	!	!LO:N:vis=00	!	!LO:N:vis=00	!	!LO:N:vis=00	!	!LO:N:vis=00	!	!LO:N:vis=00	!
8D\L	.	8d/L	p	8d\L	.	8f#/L	p	8a'\L	p	0r	.	.	0r	.	.	8f#\L	in	f	8a\L	In	.	0r	0r	.	0r	.	0r	.	0r	.	0r	.	0r	.	0r	.	0r	.	0r	.
8F#\	.	8d/	.	8f#\	p	8f#/J	.	8dd'\J	.	.	.	.	.	.	.	8d\J	.	.	8dd\J	.	.	.	.	.	.	.	.	.	.	.	.	.	.	.	.	.	.	.	.	.
8A\J	.	8A/J	.	8a\J	.	8e/	.	8dd\L	.	.	.	.	.	.	.	8e\	glo-	.	8dd\	glo-	.	.	.	.	.	.	.	.	.	.	.	.	.	.	.	.	.	.	.	.
8r	.	8r	.	8r	.	8r	.	(16cc#\L	.	.	.	.	.	.	.	16e\	-ri-	.	16cc#\	-ri-	.	.	.	.	.	.	.	.	.	.	.	.	.	.	.	.	.	.	.	.
.	.	.	.	.	.	.	.	16dd\JJ)	.	.	.	.	.	.	.	16f#\	-a	.	16dd\	-a	.	.	.	.	.	.	.	.	.	.	.	.	.	.	.	.	.	.	.	.
=27	=27	=27	=27	=27	=27	=27	=27	=27	=27	=27	=27	=27	=27	=27	=27	=27	=27	=27	=27	=27	=27	=27	=27	=27	=27	=27	=27	=27	=27	=27	=27	=27	=27	=27	=27	=27	=27	=27	=27	=27
8AA/L	.	8c#/L	.	8A/L	.	8g/L	.	16ee'\LL	.	.	.	.	.	.	.	8g\	de-	.	16ee\LL	de-	.	.	.	.	.	.	.	.	.	.	.	.	.	.	.	.	.	.	.	.
.	.	.	.	.	.	.	.	(16b\	.	.	.	.	.	.	.	.	.	.	16b\JJ	.	.	.	.	.	.	.	.	.	.	.	.	.	.	.	.	.	.	.	.	.
8C#/	.	8A/	.	8c#/	.	16f#/L	.	16a\	.	.	.	.	.	.	.	16f#\LL	-i	.	16a\LL	-i	.	.	.	.	.	.	.	.	.	.	.	.	.	.	.	.	.	.	.	.
.	.	.	.	.	.	16e/JJ	.	16g\JJ)	.	.	.	.	.	.	.	16e\JJ	.	.	16g\JJ	.	.	.	.	.	.	.	.	.	.	.	.	.	.	.	.	.	.	.	.	.
8D/	.	8d/	.	8d/	.	8e/L	.	8g'/L	.	.	.	.	.	.	.	8e\	pa-	.	8g/	pa-	.	.	.	.	.	.	.	.	.	.	.	.	.	.	.	.	.	.	.	.
8DD/J	.	8D/J	.	8D/J	.	8d/J	.	8f#'/J	.	.	.	.	.	.	.	8d\	-tris	.	8f#/	-tris	.	.	.	.	.	.	.	.	.	.	.	.	.	.	.	.	.	.	.	.
!	!	!	!	!	!	!	!	!	!	!	!	!	!	!	!	!	!	!	!LO:LB:g=original	!	!	!	!	!	!	!	!	!	!	!	!	!	!	!	!	!	!	!	!	!
=28	=28	=28	=28	=28	=28	=28	=28	=28	=28	=28	=28	=28	=28	=28	=28	=28	=28	=28	=28	=28	=28	=28	=28	=28	=28	=28	=28	=28	=28	=28	=28	=28	=28	=28	=28	=28	=28	=28	=28	=28
8G\L	.	8e\L	.	8g\L	.	8g/L	.	8b\L	.	.	.	.	.	.	.	8g\	de-	.	8b'\	de-	.	.	.	.	.	.	.	.	.	.	.	.	.	.	.	.	.	.	.	.
8E\J	.	8e\J	.	8e\J	.	8g/J	.	(16gg\L	.	.	.	.	.	.	.	8g\	-i	.	(16gg\LL	-i	.	.	.	.	.	.	.	.	.	.	.	.	.	.	.	.	.	.	.	.
.	.	.	.	.	.	.	.	16ee\JJ)	.	.	.	.	.	.	.	.	.	.	16ee\JJ)	.	.	.	.	.	.	.	.	.	.	.	.	.	.	.	.	.	.	.	.	.
16A\LL	.	(16e\LL	.	16a\LL	.	8f#/L	.	8cc#'\L	.	.	.	.	.	.	.	8e\	pa-	.	8cc#'\	pa-	.	.	.	.	.	.	.	.	.	.	.	.	.	.	.	.	.	.	.	.
16G\J	.	16c#\J)	.	16g\J	.	.	.	.	.	.	.	.	.	.	.	.	.	.	.	.	.	.	.	.	.	.	.	.	.	.	.	.	.	.	.	.	.	.	.	.
8F#\J	.	8d|\J	.	8f#\J	.	8f#/J	.	8dd'\J	.	.	.	.	.	.	.	8f#\	-tris	.	8dd'\	-tris	.	.	.	.	.	.	.	.	.	.	.	.	.	.	.	.	.	.	.	.
=29	=29	=29	=29	=29	=29	=29	=29	=29	=29	=29	=29	=29	=29	=29	=29	=29	=29	=29	=29	=29	=29	=29	=29	=29	=29	=29	=29	=29	=29	=29	=29	=29	=29	=29	=29	=29	=29	=29	=29	=29
!	!	!	!	!	!	!	!	!LO:TX:t=P:problem:mixed beam	!	!	!	!	!	!	!	!	!	!	!	!	!	!	!	!	!	!	!	!	!	!	!	!	!	!	!	!	!	!	!	!
8C#/L	.	16c#\LL	.	16e\LL	.	(16g/LL	.	(16ee\LL	.	.	.	.	.	.	.	(16g\	a-	.	16ee\	a-	.	.	.	.	.	.	.	.	.	.	.	.	.	.	.	.	.	.	.	.
!	!	!	!	!	!	!	!	!	!	!	!	!	!	!	!	!LO:N:xstem:cue	!	!	!	!	!	!	!	!	!	!	!	!	!	!	!	!	!	!	!	!	!	!	!	!
.	.	16A\	.	16c#\	.	16e/)	.	16g/)	.	.	.	.	.	.	.	8e\)	.	.	8g/	.	.	.	.	.	.	.	.	.	.	.	.	.	.	.	.	.	.	.	.	.
8D/J	.	16d\	.	16d\	.	(16e/	.	(16g/	.	.	.	.	.	.	.	.	.	.	.	.	.	.	.	.	.	.	.	.	.	.	.	.	.	.	.	.	.	.	.	.
.	.	16f#\JJ	.	16f#\JJ	.	16d/JJ)	.	16f#/JJ)	.	.	.	.	.	.	.	16d\	-men	.	16f#/	-men	.	.	.	.	.	.	.	.	.	.	.	.	.	.	.	.	.	.	.	.
!LO:TX:t=P:problem:mixed beam	!	!LO:TX:t=P:problem:mixed beam	!	!	!	!	!	!	!	!	!	!	!	!	!	!	!	!	!	!	!	!	!	!	!	!	!	!	!	!	!	!	!	!	!	!	!	!	!	!
*	*	*	*	*	*	*	*	*	*	*	*	*	*	*	*	*	*	*	*	*ij	*	*	*	*	*	*	*	*	*	*	*	*	*	*	*	*	*	*	*	*
8A\L	.	8a\L	.	8a\L	.	8d/L	.	8f#'/L	.	.	.	.	.	.	.	8d'\	.	.	8f#/	a-	.	.	.	.	.	.	.	.	.	.	.	.	.	.	.	.	.	.	.	.
8AA/J	.	8A/J	.	8a\J	.	8c#/J	.	8e'/J	.	.	.	.	.	.	.	8c#'\	.	.	8e/	-men	.	.	.	.	.	.	.	.	.	.	.	.	.	.	.	.	.	.	.	.
*	*	*	*	*	*	*	*	*	*	*	*	*	*	*	*	*	*	*	*	*Xij	*	*	*	*	*	*	*	*	*	*	*	*	*	*	*	*	*	*	*	*
!LO:LB:g=original	!	!	!	!	!	!	!	!	!	!	!	!	!	!	!	!	!	!	!	!	!	!	!	!	!	!	!	!	!	!	!LO:LB:g=original	!	!	!	!	!	!	!	!LO:LB:g=original	!
=30	=30	=30	=30	=30	=30	=30	=30	=30	=30	=30	=30	=30	=30	=30	=30	=30	=30	=30	=30	=30	=30	=30	=30	=30	=30	=30	=30	=30	=30	=30	=30	=30	=30	=30	=30	=30	=30	=30	=30	=30
!LO:TX:a:t=Organo	!	!	!LO:DY:a:t=for	!	!LO:DY:a:t=for	!	!LO:DY:b:t=for	!	!LO:DY:b:t=for.	!	!	!LO:DY:a:t=for	!	!	!LO:DY:a	!	!	!	!	!	!LO:DY:a:t=for	!	!	!	!	!	!	!LO:DY:b:t=for	!	!LO:DY:b:t=for	!	!LO:DY:a:t=Forte	!	!LO:DY:a:t=Forte	!	!LO:DY:b:t=forte	!	!LO:DY:b:t=for	!	!LO:DY:b:t=for
!	!	!	!	!	!	!	!	!	!	!	!	!	!	!	!	!	!	!	!	!	!	!	!	!LO:DY:b:t=for	!	!LO:DY:b:t=for	!	!	!	!	!	!	!	!	!	!	!	!	!	!
8D\L	.	8d\L	f	8d\L	f	16f#/LL	f	8a'\L	f	8D/L	In	f	4A/	In	f	4f#\	in	.	8a\L	In	f	8D/L	8dd\L	f	8ff#\L	f	8F#/L	f	8d\L	f	8D\L	f	8D\L	f	8f#/L	f	8a\L	f	(8aa\L	f
.	.	.	.	.	.	16a/	.	.	.	.	.	.	.	.	.	.	.	.	.	.	.	.	.	.	.	.	.	.	.	.	.	.	.	.	.	.	.	.	.	.
8F#\	.	8d\	.	8d\J	.	16f#/	.	8dd'\J	.	8F#/J	.	.	.	.	.	.	.	.	8dd\J	.	.	8D/	8dd\	.	8ff#\	.	8F#/	.	8d\	.	8F#\	.	8F#\	.	8f#/	.	8dd\J	.	8ddd\J)	.
.	.	.	.	.	.	16a/JJ	.	.	.	.	.	.	.	.	.	.	.	.	.	.	.	.	.	.	.	.	.	.	.	.	.	.	.	.	.	.	.	.	.	.
!	!	!	!	!	!	!	!	!	!	!	!	!	!	!	!	!	!	!	!LO:TX:t=P:problem:rytm 8.	!	!	!	!	!	!	!	!	!	!	!	!	!	!	!	!	!	!	!	!	!
!	!	!	!	!	!	!	!	!	!	!	!	!	!	!	!	!	!	!	!LO:N:vis=8.	!	!	!	!	!	!	!	!	!	!	!	!	!	!	!	!	!	!	!	!	!
8A\J	.	8A\J	.	4e\	.	8e/	.	8dd\L	.	8A\	glo-	.	8A/	glo-	.	8e\	glo-	.	8dd\	glo-	.	8AA/J	8a\J	.	8ee\J	.	8A/J	.	8e\J	.	8A\J	.	8A\J	.	8e/J	.	8dd\L	.	8ddd|\L	.
8r	.	8r	.	.	.	8r	.	(16cc#\L	.	16C#/	-ri-	.	16A/	-ri-	.	16e\	-ri-	.	16cc#\	-ri-	.	8r	8r	.	8r	.	8r	.	8r	.	8r	.	8r	.	8r	.	16cc#\L	.	(16ccc#\L	.
.	.	.	.	.	.	.	.	16dd\JJ)	.	16D\	-a	.	16A/	-a	.	16f#\	-a	.	16dd\	-a	.	.	.	.	.	.	.	.	.	.	.	.	.	.	.	.	16dd\JJ	.	16ddd\JJ)	.
!	!	!	!	!	!	!LO:LB:g=original	!	!	!	!	!	!	!	!	!	!	!	!	!	!	!	!	!	!	!	!	!	!	!	!	!	!	!	!	!LO:LB:g=original	!	!	!	!	!
=31	=31	=31	=31	=31	=31	=31	=31	=31	=31	=31	=31	=31	=31	=31	=31	=31	=31	=31	=31	=31	=31	=31	=31	=31	=31	=31	=31	=31	=31	=31	=31	=31	=31	=31	=31	=31	=31	=31	=31	=31
8AA/L	.	8c#/L	.	8e\L	.	8g/L	.	16ee'\LL	.	8E\	de-	.	8c#\	De-	.	8g\	de-	.	16ee\LL	de-	.	8AA/L	8a/L	.	8ee\L	.	8A/L	.	8e\L	.	8AA/L	.	8AA/L	.	4g/	.	4ee\	.	16eee\LL	.
.	.	.	.	.	.	.	.	(16b\	.	.	.	.	.	.	.	.	.	.	16b\JJ	.	.	.	.	.	.	.	.	.	.	.	.	.	.	.	.	.	.	.	(16bb\	.
8C#/	.	8c#/	.	8e\	.	(16f#/L	.	16a\	.	16C#/LL	-i	.	8c#\	-i	.	16f#\LL	-i	.	16a\LL	-i	.	16AA/L	16a/L	.	16ee\L	.	16A/L	.	16e\L	.	8C#/	.	8C#/	.	.	.	.	.	16aa\)	.
.	.	.	.	.	.	16e/JJ)	.	16g\JJ)	.	16AA/JJ	.	.	.	.	.	16e\JJ	.	.	16g\JJ	.	.	16AA/JJ	16a/JJ	.	16ee\JJ	.	16A/JJ	.	16e\JJ	.	.	.	.	.	.	.	.	.	16gg\JJ	.
8D/	.	8c#/	.	8e\	.	8e/L	.	8g/L	.	8D/	pa-	.	8c#\	pa-	.	8e\	pa-	.	8g/	pa-	.	8AA/L	8ee\L	.	8gg\L	.	8A/L	.	8e\L	.	8D/	.	8D/	.	8g/L	.	8ee\L	.	8gg\L	.
8DD/J	.	8d/J	.	8f#\J	.	8d/J	.	8f#/J	.	8D/	-tris	.	8d\	-tris	.	8d\	-tris	.	8f#/	-tris	.	8D/J	8dd\J	.	8ff#\J	.	8d/J	.	8f#\J	.	8DD/J	.	8DD/J	.	8f#/J	.	8dd\J	.	8ff#\J	.
!	!	!	!	!	!	!	!	!	!	!	!	!	!	!	!	!LO:SIC:v:t=custos g	!	!	!	!	!	!	!	!	!	!	!	!	!	!	!	!	!	!	!	!	!	!	!	!
!	!	!	!	!	!	!	!	!	!	!	!	!	!	!	!	!LO:LB:g=original	!	!	!	!	!	!	!	!	!	!	!	!	!	!	!	!	!	!	!	!	!LO:LB:g=original	!	!	!
=32	=32	=32	=32	=32	=32	=32	=32	=32	=32	=32	=32	=32	=32	=32	=32	=32	=32	=32	=32	=32	=32	=32	=32	=32	=32	=32	=32	=32	=32	=32	=32	=32	=32	=32	=32	=32	=32	=32	=32	=32
!	!	!LO:TX:t=P:problem:mixed beam	!	!	!	!	!	!	!	!	!	!	!	!	!	!	!	!	!	!	!	!	!	!	!	!	!	!	!	!	!	!	!	!	!	!	!	!	!	!
*	*	*	*	*	*	*	*	*	*	*	*	*	*	*ij	*	*	*	*	*	*	*	*	*	*	*	*	*	*	*	*	*	*	*	*	*	*	*	*	*	*
8G\L	.	8G/L	.	8d\L	.	8g/L	.	8b\L	.	8G\	De-	.	8d\	De-	.	8g\	de-	.	8b\	de-	.	4r	4r	.	4r	.	8D/	.	8d\	.	8G\L	.	8G\L	.	8.g/L	.	8b\L	.	8.bb\L	.
8E\J	.	8g\	.	8b\	.	16g/L	.	(16gg\L	.	8E\	-i	.	16e\LL	-i	.	8g\	-i	.	16gg\LL	-i	.	.	.	.	.	.	8r	.	8r	.	8E\J	.	8E\J	.	.	.	16gg\L	.	.	.
.	.	.	.	.	.	16g/JJ	.	16ee\JJ)	.	.	.	.	16A\JJ	.	.	.	.	.	16ee\JJ	.	.	.	.	.	.	.	.	.	.	.	.	.	.	.	16g/Jk	.	16ee\JJ	.	16eee\Jk	.
16A\LL	.	8a\	.	8a\	.	8e/L	.	8cc#\L	.	16A\LL	pa-	.	8A/	Pa-	.	8e\	pa-	.	8cc#\	pa-	.	8AA/L	8a/L	.	8ee\L	.	8A/L	.	8e\L	.	16A\LL	.	16A\LL	.	8e/L	.	8cc#\L	.	8ccc#\L	.
16G\J	.	.	.	.	.	.	.	.	.	16G\JJ	.	.	.	.	.	.	.	.	.	.	.	.	.	.	.	.	.	.	.	.	16G\J	.	16G\J	.	.	.	.	.	.	.
8F#\J	.	8d\J	.	8a\J	.	8f#/J	.	8dd\J	.	8F#\	-tris	.	8A/	-tris	.	8f#\	-tris	.	8dd\	-tris	.	8D/J	8dd/J	.	8ff#\J	.	8d/J	.	8f#\J	.	8F#\J	.	8F#\J	.	8f#/J	.	8dd\J	.	8ddd\J	.
*	*	*	*	*	*	*	*	*	*	*	*	*	*	*Xij	*	*	*	*	*	*	*	*	*	*	*	*	*	*	*	*	*	*	*	*	*	*	*	*	*	*
!	!	!	!	!	!	!	!	!LO:LB:g=original	!	!	!	!	!	!	!	!	!	!	!LO:LB:g=original	!	!	!	!	!	!	!	!	!	!	!	!	!	!	!	!	!	!	!	!	!
=33	=33	=33	=33	=33	=33	=33	=33	=33	=33	=33	=33	=33	=33	=33	=33	=33	=33	=33	=33	=33	=33	=33	=33	=33	=33	=33	=33	=33	=33	=33	=33	=33	=33	=33	=33	=33	=33	=33	=33	=33
8G\L	.	8g\L	.	8b\L	.	(16g/LL	.	(16ee\LL	.	8G\L	a-	.	8B/L	a-	.	(16g\LL	a-	.	16ee\LL	a-	.	8r	8r	.	8r	.	8r	.	8r	.	(8G\L	.	(8G\L	.	8g/L	.	8ee'\L	.	16eee\LL	.
.	.	.	.	.	.	16b/)	.	16gg\)	.	.	.	.	.	.	.	16b\)	.	.	16gg\	.	.	.	.	.	.	.	.	.	.	.	.	.	.	.	.	.	.	.	16ggg\	.
8A\	.	8b\	.	8a\	.	(16e/	.	(16cc#\	.	8A\J	.	.	8A/J	.	.	(16e\	.	.	16cc#\	.	.	8AA/L	8a/L	.	8ee\L	.	8A/L	.	8e\L	.	8A\)	.	8A\)	.	16e/L	.	(16cc#\L	.	16ccc#\	.
.	.	.	.	.	.	16g/JJ)	.	16ee\JJ)	.	.	.	.	.	.	.	16g\JJ)	.	.	16ee\JJ	.	.	.	.	.	.	.	.	.	.	.	.	.	.	.	16g/JJ	.	16ee\JJ)	.	16eee\JJ	.
8D\J	.	8d\J	.	8a\J	.	(16f#/LL	.	8dd\	.	8D/	-men	.	8A/	-men	.	8f#'\	-men	.	8dd\	-men	.	8D/J	8f#/J	.	8dd\J	.	8F#/J	.	8d\J	.	8D|\J	.	8D\J	.	8f#/	.	8dd\	.	8ddd\	.
.	.	.	.	.	.	16a/	.	.	.	.	.	.	.	.	.	.	.	.	.	.	.	.	.	.	.	.	.	.	.	.	.	.	.	.	.	.	.	.	.	.
8r	.	8r	.	8r	.	16dd/	.	8r	.	8r	.	.	8r	.	.	8r	.	.	8r	.	.	8r	8r	.	8r	.	8r	.	8r	.	8r	.	8r	.	8r	.	8r	.	8r	.
!	!	!	!	!	!	!	!LO:DY:b:t=ff&colon;	!	!	!	!	!	!	!	!	!	!	!	!	!	!	!	!	!	!	!	!	!	!	!	!	!	!	!	!	!	!	!	!	!
.	.	.	.	.	.	16a/JJ)	ff	.	.	.	.	.	.	.	.	.	.	.	.	.	.	.	.	.	.	.	.	.	.	.	.	.	.	.	.	.	.	.	.	.
!	!	!	!	!	!	!LO:LB:g=original	!	!	!	!	!	!	!	!	!	!	!	!	!	!	!	!	!	!	!	!	!LO:LB:g=original	!	!	!	!	!	!LO:LB:g=original	!	!	!	!	!	!	!
=34	=34	=34	=34	=34|:	=34	=34	=34	=34	=34	=34	=34	=34	=34	=34	=34	=34	=34	=34	=34	=34	=34	=34	=34	=34	=34	=34	=34	=34	=34	=34	=34	=34	=34	=34	=34	=34	=34	=34	=34	=34
!	!	!	!LO:DY:a:t=fortiſ&colon;	!	!LO:DY:a	!	!	!	!LO:DY:b:t=ffor.	!	!	!	!	!	!	!	!	!	!	!	!	!	!	!	!	!	!	!	!	!	!	!LO:DY:a:t=Fortiſ&colon;	!	!LO:DY:a:t=Fortiſ&colon;	!	!	!	!	!	!
*	*	*	*	*	*	*	*	*	*	*	*	*	*	*ij	*	*	*	*	*	*	*	*	*	*	*	*	*	*	*	*	*	*	*	*	*	*	*	*	*	*
16D\LL	3_ 1_	16D/LL	ff	16D/LL	f	4A/ 4f# 4dd	.	4d/ 4a 4ff#	ff	(4D/	a-	.	4.d\	a-	.	4.a\	a-	.	4.ff#\	a-	.	8D\L	8dd\L	.	8ff#\L	.	4F#/	.	4d\	.	16D\LL	ff	16D\LL	ff	4dd\	.	4ff#|\	ff	16dd\LL	.
32E\L	.	32E/L	.	32E/L	.	.	.	.	.	.	.	.	.	.	.	.	.	.	.	.	.	.	.	.	.	.	.	.	.	.	32E\L	.	32E\L	.	.	.	.	.	(32ee\L	.
32F#\JJJ	.	32F#/JJJ	.	32F#/JJJ	.	.	.	.	.	.	.	.	.	.	.	.	.	.	.	.	.	.	.	.	.	.	.	.	.	.	32F#\JJJ	.	32F#\JJJ	.	.	.	.	.	32ff#\JJJ	.
32G\LLL	.	32G/LLL	.	32G/LLL	.	.	.	.	.	.	.	.	.	.	.	.	.	.	.	.	.	16D\L	16dd\L	.	16ff#\L	.	.	.	.	.	32G\LLL	.	32G\LLL	.	.	.	.	.	32gg\LLL	.
32A\	X	32A/	.	32A/	.	.	.	.	.	.	.	.	.	.	.	.	.	.	.	.	.	.	.	.	.	.	.	.	.	.	(32A\	.	(32A\	.	.	.	.	.	32aa\	.
32B\	.	32B/	.	32B/	.	.	.	.	.	.	.	.	.	.	.	.	.	.	.	.	.	16D\JJ	16dd\JJ	.	16ff#\JJ	.	.	.	.	.	32B\	.	32B\	.	.	.	.	.	32bb\)	.
32c#\JJJ	.	32c#/JJJ	.	32c#/JJJ	.	.	.	.	.	.	.	.	.	.	.	.	.	.	.	.	.	.	.	.	.	.	.	.	.	.	32c#\JJJ)	.	32c#\JJJ)	.	.	.	.	.	32ccc#\JJJ	.
16d\LL	.	16d/LL	.	16d/LL	.	8dd\L	.	8a'\L 8ff#	.	8d\)	.	.	.	.	.	.	.	.	.	.	.	8D/L	8dd\L	.	8ff#\L	.	8F#/L	.	8d\L	.	(16d\LL	.	16d\LL	.	8dd\L	.	8ff#|\L	.	16ddd\LL	.
16A\	.	16A/	.	16A/	.	.	.	.	.	.	.	.	.	.	.	.	.	.	.	.	.	.	.	.	.	.	.	.	.	.	16A\	.	16A\	.	.	.	.	.	16aa\	.
16c#\	3	16c#/	.	16c#/	.	8ee\J	.	8a'\J 8gg	.	8A\	-men	.	8e\	-men	.	8a\	-men	.	8gg\	-men	.	8AA/J	8ee\J	.	8gg\J	.	8A/J	.	8e\J	.	16c#\)	.	16c#\	.	8ee\J	.	8gg|\J	.	16ccc#\	.
16A\JJ	.	16A/JJ	.	16A/JJ	.	.	.	.	.	.	.	.	.	.	.	.	.	.	.	.	.	.	.	.	.	.	.	.	.	.	16A\JJ	.	16A\JJ	.	.	.	.	.	16aa\JJ	.
!	!	!	!	!	!	!	!	!	!	!	!	!	!LO:LB:g=original	!	!	!	!	!	!	!	!	!	!	!	!	!	!	!	!	!	!	!	!	!	!	!	!	!	!	!
=35|:	=35	=35	=35	=35:|	=35	=35	=35	=35	=35	=35	=35	=35	=35	=35	=35	=35	=35	=35	=35	=35	=35	=35	=35	=35	=35	=35	=35	=35	=35	=35	=35|:	=35	=35|:	=35	=35	=35	=35	=35	=35	=35
!	!	!	!	!LO:TX:t=P:problem:rep	!	!	!	!	!	!	!	!	!	!	!	!	!	!	!	!	!	!	!	!	!	!	!	!	!	!	!	!	!	!	!	!	!	!	!	!
*	*	*	*	*	*	*	*	*	*	*	*ij	*	*	*	*	*	*ij	*	*	*	*	*	*	*	*	*	*	*	*	*	*	*	*	*	*	*	*	*	*	*
16D\LL	3 1	16D/LL	.	16Dyy/LL	.	4A/ 4f# 4dd	.	4d/ 4a 4ff#	.	4D/	a-	.	4.d\	a-	.	4.a\	a-	.	4.ff#\	a-	.	8D\L	8dd\L	.	8ff#\L	.	4F#/	.	4d\	.	16D\LL	.	16D\LL	.	4dd\	.	4ff#|\	.	16dd\LL	.
32E\L	.	32E/L	.	32Eyy/L	.	.	.	.	.	.	.	.	.	.	.	.	.	.	.	.	.	.	.	.	.	.	.	.	.	.	32E\L	.	32E\L	.	.	.	.	.	(32ee\L	.
32F#\JJJ	.	32F#/JJJ	.	32F#yy/JJJ	.	.	.	.	.	.	.	.	.	.	.	.	.	.	.	.	.	.	.	.	.	.	.	.	.	.	32F#\JJJ	.	32F#\JJJ	.	.	.	.	.	32ff#\JJJ	.
32G\LLL	.	(32G/LLL	.	32Gyy/LLL	.	.	.	.	.	.	.	.	.	.	.	.	.	.	.	.	.	16D\L	16dd\L	.	16ff#\L	.	.	.	.	.	32G\LLL	.	32G\LLL	.	.	.	.	.	32gg\LLL	.
32A\	.	32A/	.	32Ayy/	.	.	.	.	.	.	.	.	.	.	.	.	.	.	.	.	.	.	.	.	.	.	.	.	.	.	(32A\	.	32A\	.	.	.	.	.	32aa\	.
32B\	.	32B/	.	32Byy/	.	.	.	.	.	.	.	.	.	.	.	.	.	.	.	.	.	16D\JJ	16dd\JJ	.	16ff#\JJ	.	.	.	.	.	32B\)	.	32B\	.	.	.	.	.	32bb\)	.
32c#\JJJ	.	32c#/JJJ)	.	32c#yy/JJJ	.	.	.	.	.	.	.	.	.	.	.	.	.	.	.	.	.	.	.	.	.	.	.	.	.	.	32c#\JJJ	.	32c#\JJJ	.	.	.	.	.	32ccc#\JJJ	.
!	!	!LO:LB:g=original	!	!	!	!	!	!	!	!	!	!	!	!	!	!	!	!	!	!	!	!	!	!	!	!	!	!	!	!	!	!	!	!	!	!	!	!	!	!
16d\LL	.	16d\LL	.	16dyy/LL	.	8dd\L	.	8a'\L 8ff#	.	8d\	.	.	.	.	.	.	.	.	.	.	.	8D/L	8dd\L	.	8ff#\L	.	8F#/L	.	8d\L	.	(16d\LL	.	16d\LL	.	8dd\L	.	8ff#|\L	.	16ddd\LL	.
16A\	.	16A\	.	16Ayy/	.	.	.	.	.	.	.	.	.	.	.	.	.	.	.	.	.	.	.	.	.	.	.	.	.	.	16A\	.	16A\	.	.	.	.	.	16aa\	.
16c#\	5 3	16c#\	.	16c#yy/	.	8ee\J	.	8a'\J 8gg	.	8A\	-men	.	8e\	-men	.	8a\	-men	.	8gg\	-men	.	8AA/J	8a\J	.	8ee\J	.	8A/J	.	8e\J	.	16c#\)	.	16c#\	.	8ee\J	.	8gg|\J	.	16ccc#\	.
*	*	*	*	*	*	*	*	*	*	*	*	*	*	*Xij	*	*	*Xij	*	*	*	*	*	*	*	*	*	*	*	*	*	*	*	*	*	*	*	*	*	*	*
16A\JJ	.	16A\JJ	.	16Ayy/JJ	.	.	.	.	.	.	.	.	.	.	.	.	.	.	.	.	.	.	.	.	.	.	.	.	.	.	16A\JJ	.	16A\JJ	.	.	.	.	.	16aa\JJ	.
!	!	!	!	!LO:LB:g=original	!	!	!	!	!	!	!	!	!	!	!	!	!	!	!	!	!	!	!	!	!	!	!	!	!	!	!	!	!	!	!	!	!	!	!LO:LB:g=original	!
=36	=36	=36	=36	=36	=36	=36	=36	=36	=36	=36	=36	=36	=36	=36	=36	=36	=36	=36	=36	=36	=36	=36	=36	=36	=36	=36	=36	=36	=36	=36	=36	=36	=36	=36	=36	=36	=36	=36	=36	=36
16d\LL	.	16d/LL	.	16d/LL	.	(16dd\LL	.	8a'\L 8ff#	.	8D\L	a-	.	8d\L	a-	.	[2a\	a-	.	8ff#\L	a-	.	8D/L	8dd\L	.	8ff#\L	.	8F#/L	.	8d\L	.	16d\LL	.	16d\LL	.	8dd\L	.	8ff#|\L	.	16ddd\LL	.
16A\	.	16A/	.	16A/	.	16a\)	.	.	.	.	.	.	.	.	.	.	.	.	.	.	.	.	.	.	.	.	.	.	.	.	(16A\	.	16A\	.	.	.	.	.	16aa\	.
16c#\	5 3	16c#/	.	16c#/	.	(16ee\	.	8a'\ 8gg	.	8A\	.	.	8e\	.	.	.	.	.	8gg\	.	.	8AA/	8ee\	.	8gg\	.	8A/	.	8e\	.	16c#\	.	16c#\	.	8ee\	.	8gg|\	.	16eee\	.
16A\JJ	.	16A/JJ	.	16A/JJ	.	16a\JJ)	.	.	.	.	.	.	.	.	.	.	.	.	.	.	.	.	.	.	.	.	.	.	.	.	16A\JJ)	.	16A\JJ	.	.	.	.	.	16aa\JJ	.
!LO:LB:g=original	!	!	!	!	!	!	!	!	!	!	!	!	!	!	!	!	!	!	!	!	!	!	!	!	!	!	!	!	!	!	!	!	!	!	!	!	!	!	!	!
16d\LL	.	16d/LL	.	16d/LL	.	(16dd\LL	.	8a'\ 8ff#	.	8d\	-men	.	8d\	.	.	.	.	.	8ff#\	.	.	8D/	8dd\	.	8ff#\	.	8F#/	.	8d\	.	16d\LL	.	16d\LL	.	8dd\	.	8ff#|\	.	16ddd\LL	.
16A\	.	16A/	.	16A/	.	16a\)	.	.	.	.	.	.	.	.	.	.	.	.	.	.	.	.	.	.	.	.	.	.	.	.	16A\	.	16A\	.	.	.	.	.	16aa\	.
16c#\	5 3	16c#/	.	16c#/	.	(16ee\	.	8a'\J 8gg	.	8A\J	.	.	8e\J	.	.	.	.	.	8gg\J	.	.	8AA/J	8ee\J	.	8gg\J	.	8A/J	.	8e\J	.	16c#\	.	16c#\	.	8ee\J	.	8gg|\J	.	16eee\	.
16A\JJ	.	16A/JJ	.	16A/JJ	.	16a\JJ)	.	.	.	.	.	.	.	.	.	.	.	.	.	.	.	.	.	.	.	.	.	.	.	.	16A\JJ	.	16A\JJ	.	.	.	.	.	16aa\JJ	.
!	!	!	!	!	!	!	!	!	!	!	!	!	!	!	!	!	!	!	!	!	!	!LO:LB:g=original	!	!	!	!	!	!	!	!	!	!	!	!	!	!	!	!	!	!
=37:|	=37	=37	=37	=37	=37	=37	=37	=37	=37	=37	=37	=37	=37	=37	=37	=37	=37	=37	=37	=37	=37	=37	=37	=37	=37	=37	=37	=37	=37	=37	=37:|	=37	=37:|	=37	=37	=37	=37	=37	=37	=37
!LO:TX:t=P:problem:rep	!	!	!	!	!	!	!	!	!	!	!	!	!	!	!	!	!	!	!	!	!	!	!	!	!	!	!	!	!	!	!LO:TX:t=P:problem:rep	!	!LO:TX:t=P:problem:rep	!	!	!	!	!	!	!
16Dyy\LL	.	16D/LL	.	16D/LL	.	4A/ 4f# 4dd	.	4d/ 4a 4ff#	.	4D\	a-	.	4.d\	.	.	4.a\]	.	.	4.ff#\	-men	.	8D\L	8dd\L	.	8ff#\L	.	4F#/	.	8d\L	.	16Dyy\LL	.	16Dyy\LL	.	4dd\	.	4ff#|\	.	32ddd\LLL	.
.	.	.	.	.	.	.	.	.	.	.	.	.	.	.	.	.	.	.	.	.	.	.	.	.	.	.	.	.	.	.	.	.	.	.	.	.	.	.	32dd\	.
32Eyy\L	.	32E/L	.	(32E/L	.	.	.	.	.	.	.	.	.	.	.	.	.	.	.	.	.	.	.	.	.	.	.	.	.	.	32Eyy\L	.	32Eyy\L	.	.	.	.	.	32ee\	.
32F#yy\JJJ	.	(32F#/JJJ	.	32F#/JJJ	.	.	.	.	.	.	.	.	.	.	.	.	.	.	.	.	.	.	.	.	.	.	.	.	.	.	32F#yy\JJJ	.	32F#yy\JJJ	.	.	.	.	.	32ff#\JJJ	.
32Gyy\LLL	.	32G/LLL	.	32G/LLL	.	.	.	.	.	.	.	.	.	.	.	.	.	.	.	.	.	16D\L	16dd\L	.	16ff#\L	.	.	.	8d\	.	32Gyy\LLL	.	32Gyy\LLL	.	.	.	.	.	32gg\LLL	.
32Ayy\	.	32A/	.	32A/	.	.	.	.	.	.	.	.	.	.	.	.	.	.	.	.	.	.	.	.	.	.	.	.	.	.	(32Ayy\	.	32Ayy\	.	.	.	.	.	32aa\	.
32Byy\	.	32B/)	.	32B/	.	.	.	.	.	.	.	.	.	.	.	.	.	.	.	.	.	16D\JJ	16dd\JJ	.	16ff#\JJ	.	.	.	.	.	32Byy\)	.	32Byy\	.	.	.	.	.	32bb\	.
32c#yy\JJJ	.	32c#/JJJ	.	32c#/JJJ)	.	.	.	.	.	.	.	.	.	.	.	.	.	.	.	.	.	.	.	.	.	.	.	.	.	.	32c#yy\JJJ	.	32c#yy\JJJ	.	.	.	.	.	32ccc#\JJJ	.
16dyy\LL	.	16d/LL	.	16d/LL	.	(16dd\LL	.	8a'\L 8ff#	.	8d\	.	.	.	.	.	.	.	.	.	.	.	8D/L	8dd\L	.	8ff#\L	.	8F#/L	.	8e\J	.	(16dyy\LL	.	16dyy\LL	.	8dd\L	.	8ff#|\L	.	16ddd\LL	.
16Ayy\	.	16A/	.	16A/	.	16a\)	.	.	.	.	.	.	.	.	.	.	.	.	.	.	.	.	.	.	.	.	.	.	.	.	16Ayy\	.	16Ayy\	.	.	.	.	.	16aa\	.
16c#yy\	.	16c#/	.	16c#/	.	(16ee\	.	8a'\J 8gg	.	8A\	-men	.	8e\	-men	.	8a\	-men	.	8gg\	.	.	8AA/J	8a\J	.	8ee\J	.	8A/J	.	8ryy	.	16c#yy\)	.	16c#yy\	.	8ee\J	.	8gg|\J	.	16eee\	.
16Ayy\JJ	.	16A/JJ	.	16A/JJ	.	16a\JJ)	.	.	.	.	.	.	.	.	.	.	.	.	.	.	.	.	.	.	.	.	.	.	.	.	16Ayy\JJ	.	16Ayy\JJ	.	.	.	.	.	16aa\JJ	.
!	!	!	!	!	!	!	!	!	!	!LO:LB:g=original	!	!	!	!	!	!	!	!	!	!	!	!	!	!	!LO:LB:g=original	!	!	!	!	!	!	!	!	!	!	!	!	!	!	!
=38	=38	=38	=38	=38	=38	=38	=38	=38	=38	=38	=38	=38	=38	=38	=38	=38	=38	=38	=38	=38	=38	=38	=38	=38	=38	=38	=38	=38	=38	=38	=38	=38	=38	=38	=38	=38	=38	=38	=38	=38
*	*	*	*	*	*	*	*	*	*	*	*	*	*	*ij	*	*	*	*	*	*ij	*	*	*	*	*	*	*	*	*	*	*	*	*	*	*	*	*	*	*	*
16dyy\LL	.	16d/LL	.	16d/LL	.	16dd\LL	.	8a'\L 8ff#	.	8D\L	a-	.	8d\L	a-	.	4.a\	a-	.	8ff#\L	a-	.	8D/L	8dd\L	.	8ff#\L	.	8F#/L	.	8d\L	.	16dyy\LL	.	16dyy\LL	.	8dd\L	.	8ff#|\L	.	16ddd\LL	.
16Ayy\	.	16A/	.	16A/	.	16a\	.	.	.	.	.	.	.	.	.	.	.	.	.	.	.	.	.	.	.	.	.	.	.	.	(16Ayy\	.	16Ayy\	.	.	.	.	.	16aa\	.
16c#yy\	.	16c#/	.	16c#/	.	16ee\	.	8a'\ 8gg	.	8A\	.	.	8e\	.	.	.	.	.	8gg\	.	.	8AA/	8ee\	.	8gg\	.	8A/	.	8e\	.	16c#yy\	.	16c#yy\	.	8ee\	.	8gg|\	.	16eee\	.
16Ayy\JJ	.	16A/JJ	.	16A/JJ	.	16a\JJ	.	.	.	.	.	.	.	.	.	.	.	.	.	.	.	.	.	.	.	.	.	.	.	.	16Ayy\JJ)	.	16Ayy\JJ	.	.	.	.	.	16aa\JJ	.
16dyy\LL	.	16d/LL	.	16d/LL	.	16dd\LL	.	8a'\ 8ff#	.	8d\	-men	.	8d\J	.	.	.	.	.	8ff#\	men	.	8D/	8dd\	.	8ff#\	.	8F#/	.	8d\	.	16dyy\LL	.	16dyy\LL	.	8dd\	.	8ff#|\	.	16ddd\LL	.
*	*	*	*	*	*	*	*	*	*	*	*Xij	*	*	*	*	*	*	*	*	*Xij	*	*	*	*	*	*	*	*	*	*	*	*	*	*	*	*	*	*	*	*
16Ayy\	.	16A/	.	16A/	.	16a\	.	.	.	.	.	.	.	.	.	.	.	.	.	.	.	.	.	.	.	.	.	.	.	.	16Ayy\	.	16Ayy\	.	.	.	.	.	16aa\	.
16c#yy\	.	16c#/	.	16c#/	.	16ee\	.	8a'\J 8gg	.	8A\J	.	.	8e\	-men	.	8a\	-men	.	8gg\J	.	.	8AA/J	8ee\J	.	8gg\J	.	8A/J	.	8e\J	.	16c#yy\	.	16c#yy\	.	8ee\J	.	8gg|\J	.	16eee\	.
16Ayy\JJ	.	16A/JJ	.	16A/JJ	.	16a\JJ	.	.	.	.	.	.	.	.	.	.	.	.	.	.	.	.	.	.	.	.	.	.	.	.	16Ayy\JJ	.	16Ayy\JJ	.	.	.	.	.	16aa\JJ	.
!	!	!	!	!	!	!	!	!	!	!	!	!	!	!	!	!	!	!	!	!	!	!	!	!	!	!	!	!	!LO:LB:g=original	!	!LO:LB:g=original	!	!	!	!	!	!	!	!	!
=39	=39	=39	=39	=39	=39	=39	=39	=39	=39	=39	=39	=39	=39	=39	=39	=39	=39	=39	=39	=39	=39	=39	=39	=39	=39	=39	=39	=39	=39	=39	=39	=39	=39	=39	=39	=39	=39	=39	=39	=39
!LO:TX:t=P:problem:mixed beam	!	!	!	!	!	!	!	!	!	!	!	!	!	!	!	!	!	!	!	!	!	!	!	!	!	!	!	!	!	!	!	!	!	!	!	!	!	!	!	!
16d\LL	3	8d|\L	.	8d'\L	.	8.dd|\L	.	8.ff#'\L	.	4d\	a-	.	[2d\	a-	.	4d\	a-	.	2ff#\	a-	.	4D/	4dd\	.	4ff#\	.	4F#/	.	4d\	.	8.C#/L	.	8.d\L	.	8.dd\L	.	8.ff#\L	.	8.ddd\L	.
16D/JJ	.	.	.	.	.	.	.	.	.	.	.	.	.	.	.	.	.	.	.	.	.	.	.	.	.	.	.	.	.	.	.	.	.	.	.	.	.	.	.	.
16d\LL	.	(16dd|\L	.	16dd'\L	.	.	.	.	.	.	.	.	.	.	.	.	.	.	.	.	.	.	.	.	.	.	.	.	.	.	.	.	.	.	.	.	.	.	.	.
16c#\JJ	.	16cc#|\JJ)	.	16cc#'\JJ	.	16dd|\Jk	.	16ff#'\Jk	.	.	.	.	.	.	.	.	.	.	.	.	.	.	.	.	.	.	.	.	.	.	16C#/Jk	.	16d\Jk	.	16dd\Jk	.	16ff#\Jk	.	16ddd\Jk	.
16B\LL	.	16b|\LL	.	16b'\LL	.	8.dd|\L	.	8.ff#'\L	.	4B\	-men	.	.	.	.	4b\	.	.	.	.	.	4r	4r	.	4r	.	4d\	.	4f#\	.	8.AA/L	.	8.B\L	.	8.dd\L	.	8.ff#\L	.	8.ddd\L	.
16A\	.	16a|\	.	16a'\	.	.	.	.	.	.	.	.	.	.	.	.	.	.	.	.	.	.	.	.	.	.	.	.	.	.	.	.	.	.	.	.	.	.	.	.
16G\	.	16g|\	.	16g'\	.	.	.	.	.	.	.	.	.	.	.	.	.	.	.	.	.	.	.	.	.	.	.	.	.	.	.	.	.	.	.	.	.	.	.	.
16F#\JJ	.	16f#|\JJ	.	16f#'\JJ	.	16dd|\Jk	.	16ff#'\Jk	.	.	.	.	.	.	.	.	.	.	.	.	.	.	.	.	.	.	.	.	.	.	16AA/Jk	.	16B\Jk	.	16dd\Jk	.	16ff#\Jk	.	16ddd\Jk	.
!	!	!	!	!	!	!LO:LB:g=original	!	!	!	!	!	!	!	!	!	!	!	!	!	!	!	!	!LO:LB:g=original	!	!	!	!	!	!	!	!	!	!	!	!	!	!	!	!	!
=40	=40	=40	=40	=40	=40	=40	=40	=40	=40	=40	=40	=40	=40	=40	=40	=40	=40	=40	=40	=40	=40	=40	=40	=40	=40	=40	=40	=40	=40	=40	=40	=40	=40	=40	=40	=40	=40	=40	=40	=40
!	!	!	!	!	!	!	!	!	!	!	!	!	!LO:N:xstem:cue	!	!	!	!	!	!	!	!	!	!	!	!	!	!	!	!	!	!	!	!	!	!	!	!	!	!	!
*	*	*	*	*	*	*	*	*	*	*	*ij	*	*	*	*	*	*	*	*	*	*	*	*	*	*	*	*	*	*	*	*	*	*	*	*	*	*	*	*	*
16G\LL	6 5	16g|\LL	.	16g'\LL	.	8.dd|\L	.	8.ee'\L	.	4G\	a-	.	4d\]	.	.	4g\	.	.	4ee\	.	.	4r	4r	.	4r	.	4d\	.	4e\	.	8.FF#/L	.	8.G\L	.	8.dd\L	.	8.ee\L	.	8.ddd\L	.
16E\	.	16e|\	.	16e'\	.	.	.	.	.	.	.	.	.	.	.	.	.	.	.	.	.	.	.	.	.	.	.	.	.	.	.	.	.	.	.	.	.	.	.	.
16F#\	.	16f#|\	.	16f#'\	.	.	.	.	.	.	.	.	.	.	.	.	.	.	.	.	.	.	.	.	.	.	.	.	.	.	.	.	.	.	.	.	.	.	.	.
16G\JJ	.	16g|\JJ	.	16g'\JJ	.	16dd|\Jk	.	16ee'\Jk	.	.	.	.	.	.	.	.	.	.	.	.	.	.	.	.	.	.	.	.	.	.	16GG/Jk	.	16G\Jk	.	16dd\Jk	.	16ee\Jk	.	16ddd\Jk	.
16A\LL	5 3	16a|\LL	.	16a'\LL	.	8.cc#|\L	.	8.ee'\L	.	4A\	-men	.	4c#\	-men	.	4a\	-men	.	4ee\	-men	.	8AA/L	8a/L	.	8ee\L	.	4A/	.	4e\	.	8.AA/L	.	8.A\L	.	8.cc#\L	.	8.ee\L	.	8.ccc#\L	.
*	*	*	*	*	*	*	*	*	*	*	*	*	*	*Xij	*	*	*	*	*	*	*	*	*	*	*	*	*	*	*	*	*	*	*	*	*	*	*	*	*	*
16G\	.	16g|\	.	16g'\	.	.	.	.	.	.	.	.	.	.	.	.	.	.	.	.	.	.	.	.	.	.	.	.	.	.	.	.	.	.	.	.	.	.	.	.
16F#\	.	16f#|\	.	16f#'\	.	.	.	.	.	.	.	.	.	.	.	.	.	.	.	.	.	16AA/L	16a/L	.	16ee\L	.	.	.	.	.	.	.	.	.	.	.	.	.	.	.
!	!	!	!	!	!	!	!	!	!	!	!	!	!	!	!	!	!	!	!	!	!	!	!	!	!	!	!	!	!	!	!	!	!LO:TX:b:t=Volti Subito	!	!	!	!	!	!	!
16E\JJ	.	16e|\JJ	.	16e'\JJ	.	16cc#|\Jk	.	16ee'\Jk	.	.	.	.	.	.	.	.	.	.	.	.	.	16AA/JJ	16a/JJ	.	16ee\JJ	.	.	.	.	.	16AA/Jk	.	16A\Jk	.	16cc#\Jk	.	16ee\Jk	.	16ccc#\Jk	.
!	!	!	!	!	!	!	!	!	!	!	!	!	!	!	!	!	!	!	!	!	!	!	!	!	!	!	!	!	!	!	!	!	!LO:PB:g=original	!	!	!	!	!	!	!
=41	=41	=41	=41	=41	=41	=41	=41	=41	=41	=41	=41	=41	=41	=41	=41	=41	=41	=41	=41	=41	=41	=41	=41	=41	=41	=41	=41	=41	=41	=41	=41	=41	=41	=41	=41	=41	=41	=41	=41	=41
*	*	*	*	*	*	*	*	*	*	*	*	*	*	*	*	*	*ij	*	*	*	*	*	*	*	*	*	*	*	*	*	*	*	*	*	*	*	*	*	*	*
!	!	!	!	!	!	!	!	!	!	!	!	!	!LO:N:vis=1	!	!	!	!	!	!	!	!	!	!	!	!	!	!	!	!	!	!	!	!	!	!	!	!	!	!	!
16D\LL	8 3	16d\LL	.	16d\LL	.	8.dd|\L	.	8.ff#'\L	.	4d\	a-	.	[2d\	a-	.	4d\	a-	.	2ff#\	a-	.	4D\	4dd\	.	4ff#\	.	4F#/	.	4d\	.	8.DD/L	.	8.D\L	.	[2dd\	.	2ff#\	.	8.ddd\L	.
32F#\L	.	32f#\L	.	32f#\L	.	.	.	.	.	.	.	.	.	.	.	.	.	.	.	.	.	.	.	.	.	.	.	.	.	.	.	.	.	.	.	.	.	.	.	.
32A\JJJ	.	32a\JJJ	.	32a\JJJ	.	.	.	.	.	.	.	.	.	.	.	.	.	.	.	.	.	.	.	.	.	.	.	.	.	.	.	.	.	.	.	.	.	.	.	.
16d\LL	.	16dd|\LL	.	16dd|\LL	.	.	.	.	.	.	.	.	.	.	.	.	.	.	.	.	.	.	.	.	.	.	.	.	.	.	.	.	.	.	.	.	.	.	.	.
16c#\	.	16cc#|\JJ	.	16cc#|\JJ	.	16dd|\Jk	.	16ff#'\Jk	.	.	.	.	.	.	.	.	.	.	.	.	.	.	.	.	.	.	.	.	.	.	16DD/Jk	.	16D\Jk	.	.	.	.	.	16ddd\Jk	.
16B\	.	16b|\LL	.	16b'\LL	.	8.dd|\L	.	8.ff#'\L	.	4B\	-men	.	.	.	.	4b\	-men	.	.	.	.	4r	4r	.	4r	.	4d\	.	4f#\	.	8.BB/L	.	8.B\L	.	.	.	.	.	8.ddd\L	.
*	*	*	*	*	*	*	*	*	*	*	*Xij	*	*	*	*	*	*Xij	*	*	*	*	*	*	*	*	*	*	*	*	*	*	*	*	*	*	*	*	*	*	*
16A\	.	16a|\	.	16a'\	.	.	.	.	.	.	.	.	.	.	.	.	.	.	.	.	.	.	.	.	.	.	.	.	.	.	.	.	.	.	.	.	.	.	.	.
16G\	.	16g|\	.	16g'\	.	.	.	.	.	.	.	.	.	.	.	.	.	.	.	.	.	.	.	.	.	.	.	.	.	.	.	.	.	.	.	.	.	.	.	.
16F#\JJ	.	16f#|\JJ	.	16f#'\JJ	.	16dd|\Jk	.	16ff#'\Jk	.	.	.	.	.	.	.	.	.	.	.	.	.	.	.	.	.	.	.	.	.	.	16BB/Jk	.	16B\Jk	.	.	.	.	.	16ddd\Jk	.
!	!	!	!	!	!	!	!	!	!	!	!	!	!	!	!	!	!	!	!LO:LB:g=original	!	!	!	!	!	!	!	!	!	!	!	!	!	!	!	!	!	!	!	!LO:LB:g=original	!
=42	=42	=42	=42	=42	=42	=42	=42	=42	=42	=42	=42	=42	=42	=42	=42	=42	=42	=42	=42	=42	=42	=42	=42	=42	=42	=42	=42	=42	=42	=42	=42	=42	=42	=42	=42	=42	=42	=42	=42	=42
!	!	!	!	!	!	!	!	!	!	!	!	!	!LO:N:xstem:cue	!	!	!	!	!	!	!	!	!	!	!	!	!	!	!	!	!	!	!	!	!	!	!	!	!	!	!
16G\LL	6 5	16g\LL	.	16g\LL	.	8.dd\L	.	8.ee'\L	.	(4G\	a-	.	4d\]	.	.	(4g\	a-	.	2ee\	.	.	4r	4r	.	4r	.	4d\	.	4e\	.	8.GG/L	.	8.G\L	.	4dd\]	.	2ee\	.	8.ddd\L	.
16E\	.	16e\	.	16e\	.	.	.	.	.	.	.	.	.	.	.	.	.	.	.	.	.	.	.	.	.	.	.	.	.	.	.	.	.	.	.	.	.	.	.	.
16F#\	.	16f#\	.	16f#\	.	.	.	.	.	.	.	.	.	.	.	.	.	.	.	.	.	.	.	.	.	.	.	.	.	.	.	.	.	.	.	.	.	.	.	.
16G\JJ	.	16g\JJ	.	16g\JJ	.	16dd\Jk	.	16ee'\Jk	.	.	.	.	.	.	.	.	.	.	.	.	.	.	.	.	.	.	.	.	.	.	16GG/Jk	.	16G\Jk	.	.	.	.	.	16ddd\Jk	.
!	!	!LO:LB:g=original	!	!	!	!	!	!	!	!	!	!	!	!	!	!	!	!	!	!	!	!	!	!	!	!	!	!	!	!	!	!	!	!	!	!	!	!	!	!
16A\LL	5 3	16a\LL	.	16a\LL	.	8.cc#\L	.	8.ee'\L	.	4A\)	.	.	4c#\	.	.	4a\)	.	.	.	.	.	8AA/L	8a/L	.	8ee\L	.	4A/	.	4e\	.	8.AA/L	.	8.A\L	.	4cc#\	.	.	.	8.ccc#\L	.
16G\	.	16g\	.	16g\	.	.	.	.	.	.	.	.	.	.	.	.	.	.	.	.	.	.	.	.	.	.	.	.	.	.	.	.	.	.	.	.	.	.	.	.
16F#\	.	16f#\	.	16f#\	.	.	.	.	.	.	.	.	.	.	.	.	.	.	.	.	.	16AA/L	16a/L	.	16ee\L	.	.	.	.	.	.	.	.	.	.	.	.	.	.	.
16E\JJ	.	16e\JJ	.	16e\JJ	.	16cc#\Jk	.	16ee'\Jk	.	.	.	.	.	.	.	.	.	.	.	.	.	16AA/JJ	16a/JJ	.	16ee\JJ	.	.	.	.	.	16AA/Jk	.	16A\Jk	.	.	.	.	.	16ccc#\Jk	.
!	!	!	!	!LO:LB:g=original	!	!	!	!LO:LB:g=original	!	!	!	!	!	!	!	!	!	!	!	!	!	!	!	!	!	!	!	!	!	!	!	!	!	!	!	!	!	!	!	!
=43	=43	=43	=43	=43	=43	=43	=43	=43	=43	=43	=43	=43	=43	=43	=43	=43	=43	=43	=43	=43	=43	=43	=43	=43	=43	=43	=43	=43	=43	=43	=43	=43	=43	=43	=43	=43	=43	=43	=43	=43
*	*	*	*	*^	*	*^	*	*^	*	*	*	*	*	*	*	*	*	*	*	*	*	*	*	*	*	*	*	*	*	*	*	*	*	*	*	*	*	*	*	*
!	!	!	!	!	!	!	!LO:TX:a:t=Obois	!	!	!	!	!	!	!	!	!	!	!	!	!	!	!	!	!	!	!	!	!	!	!	!	!	!	!	!LO:DY:a:t=Piano	!	!	!LO:TX:b:t=B solo dolce	!	!LO:TX:b:t=B Solo	!	!	!
4D\	3	4d\	.	4d\	4ryy	.	4ryy	4dd\	.	4ryy	4dd\	.	4D/	-men	.	4d\	-men	.	4a\	-men	.	4ff#\	-men	.	4D\	4f#/	.	4dd\	.	8F#/	.	8d\	.	8DD/	p	8D\	.	8dd\	.	8ff#\	.	8ddd\	.
.	.	.	.	.	.	.	.	.	.	.	.	.	.	.	.	.	.	.	.	.	.	.	.	.	.	.	.	.	.	8r	.	8r	.	8r	.	8r	.	8r	.	8r	.	8r	.
!	!	!	!	!LO:TX:t=P:problem:partia fagotu mniejszą czcionką	!	!	!	!	!	!LO:TX:t=P:problem:partia oboju mniejszą czcionką	!	!	!	!	!	!	!	!	!	!	!	!	!	!	!	!	!	!	!	!	!	!	!	!	!	!	!	!	!	!	!	!	!
!	!	!	!	!LO:TX:b:t=Fagot	!	!	!LO:TX:b:t=Solo	!	!	!LO:TX:a:t=oboi Solo	!	!	!	!	!	!	!	!	!	!	!	!	!	!	!	!	!	!	!	!LO:TX:b:t=Solo	!	!LO:TX:b:t=Solo	!	!	!	!LO:TX:a:t=Solo	!	!	!	!	!	!LO:TX:b:i:t=solo Dolce	!
*	*	*	*	*cue	*	*	*cue	*	*	*cue	*	*	*	*	*	*	*	*	*	*	*	*	*	*	*	*	*	*	*	*	*	*	*	*	*	*	*	*	*	*	*	*	*
4r	.	4r	.	8A\L	4r	.	8cc#/L	4r	.	8ee/L	4r	.	4r	.	.	4r	.	.	4r	.	.	4r	.	.	4r	4r	.	4r	.	8A/L	.	8e\L	.	8AA/L	.	8AA/L	.	8cc#|\L	.	8ee'\L	.	4ccc#\	.
.	.	.	.	8c#\J	.	.	16ee/L	.	.	16gg/L	.	.	.	.	.	.	.	.	.	.	.	.	.	.	.	.	.	.	.	8A/J	.	8e\J	.	8C#/J	.	8C#/J	.	(16ee\L	.	(16gg\L	.	.	.
.	.	.	.	.	.	.	16cc#/JJ	.	.	16ee/JJ	.	.	.	.	.	.	.	.	.	.	.	.	.	.	.	.	.	.	.	.	.	.	.	.	.	.	.	16cc#\JJ)	.	16ee\JJ)	.	.	.
=44	=44	=44	=44	=44	=44	=44	=44	=44	=44	=44	=44	=44	=44	=44	=44	=44	=44	=44	=44	=44	=44	=44	=44	=44	=44	=44	=44	=44	=44	=44	=44	=44	=44	=44	=44	=44	=44	=44	=44	=44	=44	=44	=44
!LO:TX:a:t=7	!	!LO:TX:a:t=7	!	!LO:TX:b:t=1	!	!	!LO:TX:t=P:problem:partia oboju mniejszą czcionką	!	!	!LO:TX:t=P:problem:partia oboju mniejszą czcionką	!	!	!LO:TX:a:t=7.	!	!	!	!	!	!LO:TX:a:t=7.	!	!	!LO:TX:a:t=7.	!	!	!LO:TX:a:t=7	!LO:TX:a:t=7	!	!	!	!	!	!	!	!LO:TX:t=P:problem:mixed beam	!	!LO:TX:t=P:problem:mixed beam	!	!	!	!	!	!	!
!	!	!LO:N:vis=00	!	!	!	!	!	!	!	!	!	!	!LO:N:vis=00	!	!	!LO:N:vis=00	!	!	!LO:N:vis=00	!	!	!LO:N:vis=00	!	!	!	!	!	!	!	!	!	!	!	!	!	!	!	!	!	!	!	!	!
!LO:N:vis=00	!	!	!	!	!	!	!	!	!	!	!	!	!	!	!	!	!	!	!	!	!	!	!	!	!LO:N:vis=00	!LO:N:vis=00	!	!	!	!	!	!	!	!	!	!	!	!	!	!	!	!	!
0r	.	0r	.	8d/L	2r	.	8dd/L	2r	.	8ff#/L	2r	.	0r	.	.	0r	.	.	0r	.	.	0r	.	.	0r	0r	.	2r	.	8d\L	.	8f#\L	.	8D\L	.	8D\L	.	8dd\L	.	8ff#\L	.	4ddd\	.
.	.	.	.	8f#/	.	.	8dd/J	.	.	8ff#/J	.	.	.	.	.	.	.	.	.	.	.	.	.	.	.	.	.	.	.	8d\	.	8f#\	.	8F#\	.	8F#\	.	8dd|\J	.	8ff#\J	.	.	.
.	.	.	.	8a/	.	.	16ff#/LL	.	.	(16aa/LL	.	.	.	.	.	.	.	.	.	.	.	.	.	.	.	.	.	.	.	8A\	.	8e\	.	8A\	.	8A\	.	(16ff#\LL	.	(16aa\LL	.	8eee\L	.
.	.	.	.	.	.	.	16ee/	.	.	16gg/)	.	.	.	.	.	.	.	.	.	.	.	.	.	.	.	.	.	.	.	.	.	.	.	.	.	.	.	16ee\)	.	16gg\)	.	.	.
.	.	.	.	8c#/J	.	.	16ee/	.	.	(16gg/	.	.	.	.	.	.	.	.	.	.	.	.	.	.	.	.	.	.	.	8A\J	.	8e\J	.	8AA/J	.	8AA/J	.	(16ee\	.	(16gg\	.	8ccc#\J	.
.	.	.	.	.	.	.	16cc#/JJ	.	.	16ee/JJ)	.	.	.	.	.	.	.	.	.	.	.	.	.	.	.	.	.	.	.	.	.	.	.	.	.	.	.	16dd\JJ)	.	16ff#\JJ)	.	.	.
!	!	!	!	!	!	!	!	!	!	!	!	!	!	!	!	!	!	!	!	!	!	!	!	!	!	!	!	!	!	!	!	!	!	!	!	!	!	!LO:LB:g=original	!	!LO:LB:g=original	!	!	!
=45	=45	=45	=45	=45	=45	=45	=45	=45	=45	=45	=45	=45	=45	=45	=45	=45	=45	=45	=45	=45	=45	=45	=45	=45	=45	=45	=45	=45	=45	=45	=45	=45	=45	=45	=45	=45	=45	=45	=45	=45	=45	=45	=45
!	!	!	!	!LO:TX:b:t=2	!	!	!LO:TX:t=P:problem:partia oboju mniejszą czcionką	!	!	!LO:TX:t=P:problem:partia oboju mniejszą czcionką	!	!	!	!	!	!	!	!	!	!	!	!	!	!	!	!	!	!	!	!	!	!	!	!LO:TX:t=P:problem:mixed beam	!	!LO:TX:t=P:problem:mixed beam	!	!	!	!	!	!	!
.	.	.	.	8d/L	2r	.	8dd/L	2r	.	8ff#/L	2r	.	.	.	.	.	.	.	.	.	.	.	.	.	.	.	.	4r	.	8F#/L	.	8d\L	.	8D\L	.	8D\L	.	8dd|\L	.	8ff#'\L	.	4ddd\	.
.	.	.	.	8d/	.	.	8dd/J	.	.	8ff#/J	.	.	.	.	.	.	.	.	.	.	.	.	.	.	.	.	.	.	.	8F#/	.	8d\	.	8DD/	.	8DD/	.	8dd|\J	.	8ff#|\J	.	.	.
.	.	.	.	8A/	.	.	8cc#/L	.	.	8ee/L	.	.	.	.	.	.	.	.	.	.	.	.	.	.	.	.	.	4A/	.	8A/	.	8e\	.	8AA/	.	8AA/	.	8cc#|\L	.	8ee\L	.	4ccc#\	.
.	.	.	.	8c#/J	.	.	16ee/L	.	.	(16gg/L	.	.	.	.	.	.	.	.	.	.	.	.	.	.	.	.	.	.	.	8A/J	.	8e\J	.	8C#/J	.	8C#/J	.	(16ee\L	.	(16gg\L	.	.	.
.	.	.	.	.	.	.	16cc#/JJ	.	.	16ee/JJ)	.	.	.	.	.	.	.	.	.	.	.	.	.	.	.	.	.	.	.	.	.	.	.	.	.	.	.	16cc#\JJ)	.	16ee\JJ)	.	.	.
=46	=46	=46	=46	=46	=46	=46	=46	=46	=46	=46	=46	=46	=46	=46	=46	=46	=46	=46	=46	=46	=46	=46	=46	=46	=46	=46	=46	=46	=46	=46	=46	=46	=46	=46	=46	=46	=46	=46	=46	=46	=46	=46	=46
!	!	!	!	!LO:TX:b:t=3	!	!	!LO:TX:t=P:problem:partia oboju mniejszą czcionką	!	!	!LO:TX:t=P:problem:partia oboju mniejszą czcionką	!	!	!	!	!	!	!	!	!	!	!	!	!	!	!	!	!	!	!LO:DY:a	!	!	!	!	!LO:TX:t=P:problem:mixed beam	!	!LO:TX:t=P:problem:mixed beam	!	!	!	!	!	!	!
!	!	!	!	!	!	!	!	!	!	!	!	!	!	!	!	!	!	!	!	!	!	!	!	!	!	!	!	!	!LO:DY:a:t=piano	!	!	!	!	!	!	!	!	!	!	!	!	!	!
.	.	.	.	8d/L	2r	.	8dd/L	2r	.	8ff#/L	2r	.	.	.	.	.	.	.	.	.	.	.	.	.	.	.	.	8d/L	p	8d\L	.	8f#\L	.	8D\L	.	8D\L	.	8dd|\L	.	8ff#'\L	.	4ddd\	.
.	.	.	.	8f#/	.	.	8dd/J	.	.	8ff#/J	.	.	.	.	.	.	.	.	.	.	.	.	.	.	.	.	.	8f#/	.	8d\	.	8f#\	.	8F#\	.	8F#\	.	8dd|\J	.	8ff#'\J	.	.	.
.	.	.	.	8a/	.	.	16ff#/LL	.	.	16aa/LL	.	.	.	.	.	.	.	.	.	.	.	.	.	.	.	.	.	8a/	.	8A\	.	8e\	.	8A\	.	8A\	.	(16ff#\LL	.	(16aa\LL	.	8eee\L	.
.	.	.	.	.	.	.	16ee/	.	.	16gg/	.	.	.	.	.	.	.	.	.	.	.	.	.	.	.	.	.	.	.	.	.	.	.	.	.	.	.	16ee\)	.	16gg\)	.	.	.
.	.	.	.	8A/J	.	.	16ee/	.	.	16gg/	.	.	.	.	.	.	.	.	.	.	.	.	.	.	.	.	.	8A/J	.	8A\J	.	8e\J	.	8AA/J	.	8AA/J	.	(16ee\	.	(16gg\	.	8ccc#\J	.
.	.	.	.	.	.	.	16dd/JJ	.	.	16ee/JJ	.	.	.	.	.	.	.	.	.	.	.	.	.	.	.	.	.	.	.	.	.	.	.	.	.	.	.	16dd\JJ)	.	16ee\JJ)	.	.	.
=47	=47	=47	=47	=47	=47	=47	=47	=47	=47	=47	=47	=47	=47	=47	=47	=47	=47	=47	=47	=47	=47	=47	=47	=47	=47	=47	=47	=47	=47	=47	=47	=47	=47	=47	=47	=47	=47	=47	=47	=47	=47	=47	=47
!	!	!	!	!LO:TX:b:t=4	!	!	!LO:TX:t=P:problem:partia oboju mniejszą czcionką	!	!	!LO:TX:t=P:problem:partia oboju mniejszą czcionką	!	!	!	!	!	!	!	!	!	!	!	!	!	!	!	!	!	!	!	!	!	!	!	!LO:TX:t=P:problem:mixed beam	!	!LO:TX:t=P:problem:mixed beam	!	!	!	!	!	!	!
.	.	.	.	8d/L	2r	.	8dd/L	2r	.	8ff#/L	2r	.	.	.	.	.	.	.	.	.	.	.	.	.	.	.	.	4d/	.	8F#/L	.	8d\L	.	8D\L	.	8D\L	.	8dd|\L	.	8ff#\L	.	4ddd\	.
.	.	.	.	8d/	.	.	8dd/J	.	.	8ff#/J	.	.	.	.	.	.	.	.	.	.	.	.	.	.	.	.	.	.	.	8F#/	.	8d\	.	8DD/	.	8DD/	.	8dd|\J	.	8ff#\J	.	.	.
.	.	.	.	8A/	.	.	8cc#/L	.	.	8ee/L	.	.	.	.	.	.	.	.	.	.	.	.	.	.	.	.	.	4A/	.	8A/	.	8e\	.	8AA/	.	8AA/	.	8cc#'\L	.	8ee\L	.	4ccc#\	.
.	.	.	.	8c#/J	.	.	16ee/L	.	.	(16gg/L	.	.	.	.	.	.	.	.	.	.	.	.	.	.	.	.	.	.	.	8A/J	.	8e\J	.	8C#/J	.	8C#/J	.	(16ee\L	.	(16gg\L	.	.	.
.	.	.	.	.	.	.	16cc#/JJ	.	.	16ee/JJ)	.	.	.	.	.	.	.	.	.	.	.	.	.	.	.	.	.	.	.	.	.	.	.	.	.	.	.	16cc#\JJ)	.	16ee\JJ)	.	.	.
!	!	!	!	!	!	!	!	!	!	!	!	!	!	!	!	!	!	!	!	!	!	!	!	!	!	!	!	!	!	!	!	!	!	!LO:LB:g=original	!	!	!	!	!	!	!	!	!
=48	=48	=48	=48	=48	=48	=48	=48	=48	=48	=48	=48	=48	=48	=48	=48	=48	=48	=48	=48	=48	=48	=48	=48	=48	=48	=48	=48	=48	=48	=48	=48	=48	=48	=48	=48	=48	=48	=48	=48	=48	=48	=48	=48
!	!	!	!	!LO:TX:b:t=5	!	!	!LO:TX:t=P:problem:partia oboju mniejszą czcionką	!	!	!LO:TX:t=P:problem:partia oboju mniejszą czcionką	!	!	!	!	!	!	!	!	!	!	!	!	!	!	!	!	!	!	!	!	!	!	!	!LO:TX:t=P:problem:mixed beam	!	!LO:TX:t=P:problem:mixed beam	!	!	!	!	!	!	!
!LO:N:vis=0	!	!LO:N:vis=0	!	!	!	!	!	!	!	!	!	!	!LO:N:vis=0	!	!	!LO:N:vis=0	!	!	!LO:N:vis=0	!	!	!LO:N:vis=0	!	!	!LO:N:vis=0	!LO:N:vis=0	!	!	!	!	!	!	!	!	!	!	!	!	!	!	!	!	!
1r	.	1r	.	8d/L	2r	.	8dd/L	2r	.	8ff#/L	2r	.	1r	.	.	1r	.	.	1r	.	.	1r	.	.	1r	1r	.	4d/	.	8d\L	.	8f#\L	.	8D\L	.	8D\L	.	8dd|\L	.	8ff#|\L	.	4ddd\	.
.	.	.	.	8d/	.	.	8dd/J	.	.	8ff#/J	.	.	.	.	.	.	.	.	.	.	.	.	.	.	.	.	.	.	.	8d\	.	8f#\	.	8DD/	.	8DD/	.	8dd|\J	.	8ff#|\J	.	.	.
.	.	.	.	8A/	.	.	8cc#/L	.	.	8ee/L	.	.	.	.	.	.	.	.	.	.	.	.	.	.	.	.	.	4A/	.	8A\	.	8e\	.	8AA/	.	8AA/	.	8cc#|\L	.	8ee|\L	.	4ccc#\	.
.	.	.	.	8c#/J	.	.	(16ee/L	.	.	(16gg/L	.	.	.	.	.	.	.	.	.	.	.	.	.	.	.	.	.	.	.	8A\J	.	8e\J	.	8C#/J	.	8C#/J	.	(16ee\L	.	(16gg\L	.	.	.
.	.	.	.	.	.	.	16cc#/JJ)	.	.	16ee/JJ)	.	.	.	.	.	.	.	.	.	.	.	.	.	.	.	.	.	.	.	.	.	.	.	.	.	.	.	16cc#\JJ)	.	16ee\JJ)	.	.	.
=49	=49	=49	=49	=49	=49	=49	=49	=49	=49	=49	=49	=49	=49	=49	=49	=49	=49	=49	=49	=49	=49	=49	=49	=49	=49	=49	=49	=49	=49	=49	=49	=49	=49	=49	=49	=49	=49	=49	=49	=49	=49	=49	=49
!	!	!	!	!LO:TX:b:t=6	!	!	!LO:TX:t=P:problem:partia oboju mniejszą czcionką	!	!	!LO:TX:t=P:problem:partia oboju mniejszą czcionką	!	!	!	!	!	!	!	!	!	!	!	!	!	!	!	!	!	!	!	!	!	!	!	!LO:TX:t=P:problem:mixed beam	!	!LO:TX:t=P:problem:mixed beam	!	!	!	!	!	!	!
.	.	.	.	8d/L	2r	.	8dd/L	2r	.	8ff#/L	2r	.	.	.	.	.	.	.	.	.	.	.	.	.	.	.	.	4d/	.	8d\L	.	8f#\L	.	8D\L	.	8D\L	.	8dd|\L	.	8ff#|\L	.	4ddd\	.
.	.	.	.	8d/	.	.	8dd/J	.	.	8ff#/J	.	.	.	.	.	.	.	.	.	.	.	.	.	.	.	.	.	.	.	8d\	.	8f#\	.	8DD/	.	8DD/	.	8dd|\J	.	8ff#|\J	.	.	.
.	.	.	.	8A/	.	.	8cc#/L	.	.	8ee/L	.	.	.	.	.	.	.	.	.	.	.	.	.	.	.	.	.	4A/	.	8A\	.	8e\	.	8AA/	.	8AA/	.	8cc#|\L	.	8ee\L	.	4ccc#\	.
.	.	.	.	8c#/J	.	.	16ee/L	.	.	16gg/L	.	.	.	.	.	.	.	.	.	.	.	.	.	.	.	.	.	.	.	8A\J	.	8e\J	.	8C#/J	.	8C#/J	.	(16ee\L	.	(16gg\L	.	.	.
.	.	.	.	.	.	.	16cc#/JJ	.	.	16ee/JJ	.	.	.	.	.	.	.	.	.	.	.	.	.	.	.	.	.	.	.	.	.	.	.	.	.	.	.	16cc#\JJ)	.	16ee\JJ)	.	.	.
!	!	!	!	!	!	!	!	!	!	!	!	!	!	!	!	!	!	!	!	!	!	!	!	!	!	!	!	!	!	!LO:LB:g=original	!	!	!	!	!	!	!	!	!	!	!	!	!
=50	=50	=50	=50	=50	=50	=50	=50	=50	=50	=50	=50	=50	=50	=50	=50	=50	=50	=50	=50	=50	=50	=50	=50	=50	=50	=50	=50	=50	=50	=50	=50	=50	=50	=50	=50	=50	=50	=50	=50	=50	=50	=50	=50
!	!	!	!	!LO:TX:b:t=7	!	!	!LO:TX:t=P:problem:partia oboju mniejszą czcionką	!	!	!LO:TX:t=P:problem:partia oboju mniejszą czcionką	!	!	!	!	!	!	!	!	!	!	!	!	!	!	!	!	!	!	!	!	!	!	!	!LO:TX:t=P:problem:mixed beam	!	!	!	!	!	!	!	!	!
!	!	!	!	!	!	!	!	!	!	!	!	!	!LO:N:vis=1	!	!	!LO:N:vis=1	!	!	!LO:N:vis=1	!	!	!LO:N:vis=1	!	!	!	!	!	!	!	!	!	!	!	!	!LO:DY:a	!	!	!	!	!	!	!	!
2r	.	2r	.	8d/L	2r	.	8dd/L	2r	.	8ff#/L	2r	.	2r	.	.	2r	.	.	2r	.	.	2r	.	.	2r	2r	.	8d/	.	8F#/L	.	8d\L	.	8D\L	f	8D\L	.	8dd|\L	.	8ff#|\L	.	8ddd\L	.
.	.	.	.	8g/	.	.	16b/L	.	.	16gg/L	.	.	.	.	.	.	.	.	.	.	.	.	.	.	.	.	.	8r	.	8A/	.	8e\	.	8G\	.	8G\J	.	(16b\L	.	(16gg\L	.	8eee\	.
.	.	.	.	.	.	.	16g/JJ	.	.	16ee/JJ	.	.	.	.	.	.	.	.	.	.	.	.	.	.	.	.	.	.	.	.	.	.	.	.	.	.	.	16g\JJ)	.	16ee\JJ)	.	.	.
!	!	!	!	!	!	!	!	!	!	!	!	!	!	!	!	!	!	!	!	!	!	!	!	!	!	!	!	!	!	!	!	!	!	!	!	!LO:LB:g=original	!	!	!	!	!	!	!
!	!	!	!	!	!	!	!	!	!	!	!	!	!	!	!	!	!	!	!	!	!	!	!	!	!	!	!	!	!	!	!	!	!	!	!	!LO:TX:t=P:problem:mixed beam	!	!	!	!	!	!	!
.	.	.	.	8a/	.	.	8f#/L	.	.	8dd/L	.	.	.	.	.	.	.	.	.	.	.	.	.	.	.	.	.	8a/L	.	8d/	.	8f#\	.	8A\	.	8A\L	.	8f#'/L	.	8dd|\L	.	8ggg\	.
.	.	.	.	8A/J	.	.	8e/J	.	ff	8cc#/J	.	.	.	.	.	.	.	.	.	.	.	.	.	.	.	.	.	8A/J	.	8A/J	.	8e\J	.	8AA/J	.	8AA/J	.	8e'/J	.	8cc#|\J	.	8eee\J	.
*	*	*	*	*Xcue	*	*	*Xcue	*	*	*Xcue	*	*	*	*	*	*	*	*	*	*	*	*	*	*	*	*	*	*	*	*	*	*	*	*	*	*	*	*	*	*	*	*	*
*	*	*	*	*v	*v	*	*	*	*	*v	*v	*	*	*	*	*	*	*	*	*	*	*	*	*	*	*	*	*	*	*	*	*	*	*	*	*	*	*	*	*	*	*	*
*	*	*	*	*	*	*v	*v	*	*	*	*	*	*	*	*	*	*	*	*	*	*	*	*	*	*	*	*	*	*	*	*	*	*	*	*	*	*	*	*	*	*
!LO:LB:g=original	!	!	!	!	!	!	!	!	!	!	!	!	!	!	!	!	!	!	!	!	!	!	!	!	!	!	!	!	!	!	!	!	!	!	!	!	!	!	!	!
=51	=51	=51	=51	=51	=51	=51	=51	=51	=51	=51	=51	=51	=51	=51	=51	=51	=51	=51	=51	=51	=51	=51	=51	=51	=51	=51	=51	=51	=51	=51	=51	=51	=51	=51	=51	=51	=51	=51	=51	=51
!	!	!	!	!	!	!	!	!	!	!	!	!LO:DY:b:t=ff&colon;	!	!	!LO:DY:a:t=ff&colon;	!	!	!LO:DY:b:t=ff&colon;	!	!	!LO:DY:a:t=for&colon;	!	!	!	!	!	!	!	!	!	!	!	!	!LO:DY:a	!	!	!	!	!	!
.	.	.	.	.	.	.	.	.	.	.	.	ff	.	.	.	.	.	.	.	.	.	.	.	.	.	.	.	.	.	.	.	.	.	.	.	.	.	.	.	.
!	!	!	!	!	!LO:DY:b:t=for	!	!	!	!LO:DY:b:t=for.	!	!	!LO:DY:a:t=for	!	!	!	!	!	!	!	!	!	!	!	!	!	!	!	!	!	!LO:DY:b:t=for	!	!LO:DY:a:t=fortiſ&colon;	!	!LO:DY:a:t=forte	!	!LO:DY:b:t=for&colon;	!	!	!	!LO:DY:b:t=for.
!	!	!	!	!	!	!	!	!	!	!	!	!	!	!	!	!	!	!	!	!	!	!	!	!	!	!LO:DY:b:t=for	!	!	!	!	!	!	!	!	!	!	!	!	!	!
8D\	3 5	8d|\	.	8f#\ 8a	f	8a|\ 8ff#	.	8ddd\	f	8D/	a-	f	8d\	a-	ff	8a\	a-	ff	8ff#\	a-	f	8D\	8f#/	.	8dd\	f	8F#/	.	8d\	f	8D\	ff	8D\	f	8f#/	f	8dd\	.	8fff#'\	f
16r	.	16r	.	16r	.	16r	.	16r	.	16r	.	.	16r	.	.	16r	.	.	16r	.	.	16r	16r	.	16r	.	16r	.	16r	.	16r	.	16r	.	16r	.	16r	.	16r	.
!	!	!	!	!	!	!	!	!	!	!	!	!	!	!	!	!LO:LB:g=original	!	!	!	!	!	!	!	!	!	!	!	!	!	!	!	!	!	!	!	!	!	!LO:DY:b:t=for	!	!
16D\	3	16d|\	.	16e|\ 16a	.	16a|\ 16ff#	.	16ddd'\	.	16d\	.	.	16d\	.	.	16a\	.	.	16ff#'\	.	.	16D\	16dd\	.	16ff#\	.	16A/	.	16A/	.	16D'/	.	16D\	.	16dd\	.	16ff#|\	f	16fff#'\	.
!	!	!	!	!	!	!	!	!	!	!	!	!	!	!	!	!	!	!	!	!	!	!	!	!	!	!	!	!LO:DY:b:t=for	!	!	!	!	!	!	!	!	!LO:TX:a:t=e	!	!	!
8AA/L	5	8c#|\L	.	8d|\L 8a	.	8a|\L 8ee	.	8ccc#'\L	.	8A\L	.	.	8c#\L	.	.	4a\	.	.	8ee'\L	.	.	8AA/L	8a\L	.	8ee\L	.	8A/L	f	8A/L	.	8AA'/L	.	8AA/L	.	8cc#\L	.	8ee|\L	.	8eee'\L	.
8D/J	3	8d|\J	.	8f#|\J 8a	.	8a|\J 8ff#	.	8ddd'\J	.	8d\J	.	.	8d\J	.	.	.	.	.	8ff#'\J	.	.	8D/J	8dd\J	.	8ff#\J	.	8A/J	.	8A/J	.	8D'/J	.	8D/J	.	8dd\J	.	8ff#|\J	.	8fff#'\J	.
=52	=52	=52	=52	=52	=52	=52	=52	=52	=52	=52	=52	=52	=52	=52	=52	=52	=52	=52	=52	=52	=52	=52	=52	=52	=52	=52	=52	=52	=52	=52	=52	=52	=52	=52	=52	=52	=52	=52	=52	=52
!	!	!LO:N:vis=16	!	!	!	!	!	!	!	!	!	!	!	!	!	!	!	!	!	!	!	!	!	!	!	!	!	!	!	!	!	!	!	!	!	!	!	!	!	!
8AA/	5_ 3_	8c#|\	.	8e'\ 8a	.	8a|\ 8ee	.	8ccc#'\	.	8A\	-men	.	8c#\	-men	.	8a\	-men	.	8ee\	-men	.	8AA/	8a/	.	8ee\	.	8A/	.	8A/	.	8AA|/	.	8AA/	.	8cc#\	.	8ee\	.	8eee'\	.
16r	.	16r	.	16r	.	16r	.	16r	.	16r	.	.	16r	.	.	16r	.	.	16r	.	.	16r	16r	.	16r	.	16r	.	16r	.	16r	.	16r	.	16r	.	16r	.	16r	.
*	*	*	*	*	*	*	*	*	*	*	*ij	*	*	*ij	*	*	*	*	*	*	*	*	*	*	*	*	*	*	*	*	*	*	*	*	*	*	*	*	*	*
16AA/	.	16c#|\	.	16e|\ 16a	.	16a|\ 16ee	.	16aa'\	.	16A\	a-	.	16c#\	a-	.	16a\	a-	.	16ee\	a-	.	16AA/	16a/	.	16ee\	.	16A/	.	16A/	.	16AA|/	.	16AA|/	.	16cc#\	.	16ee\	.	16eee'\	.
8D/L	3	8d|\L	.	8f#|\L 8a	.	8a|\L 8ff#	.	8ddd'\L	.	8d\L	.	.	8d\L	.	.	4a\	.	.	8ff#\L	.	.	8D/L	8dd/L	.	8ff#\L	.	8A/L	.	8A/L	.	8D|/L	.	8D|/L	.	8dd\L	.	8ff#|\L	.	8fff#'\L	.
8AA/J	5 3	8c#|\J	.	8d|\J 8a	.	8a|\J 8ee	.	8aa'\J	.	8A\J	.	.	8c#\J	.	.	.	.	.	8ee\J	.	.	8AA/J	8a/J	.	8ee\J	.	8A/J	.	8A/J	.	8AA|/J	.	8AA|/J	.	8cc#\J	.	8ee|\J	.	8eee'\J	.
!	!	!	!	!	!	!	!	!	!	!	!	!	!LO:LB:g=original	!	!	!	!	!	!	!	!	!	!	!	!LO:LB:g=original	!	!	!	!	!	!	!	!	!	!	!	!	!	!LO:LB:g=original	!
=53|:	=53	=53	=53	=53	=53	=53	=53	=53	=53	=53	=53	=53	=53	=53	=53	=53	=53	=53	=53	=53	=53	=53	=53	=53	=53	=53	=53	=53	=53	=53	=53	=53	=53	=53	=53	=53	=53	=53	=53	=53
!	!	!	!	!	!	!	!	!	!	!	!	!	!	!	!	!LO:N:vis=4	!	!	!	!	!	!	!	!	!	!	!	!	!	!	!	!	!	!	!	!	!	!	!	!
8DD/	3	8d\	.	8f#|\ 8a	.	8a|\ 8ff#	.	8ddd'\	.	8D/	-men	.	8d\	-men	.	8a\	-men	.	8ff#\	-men	.	8D\	8dd\	.	8ff#\	.	8A/	.	8A/	.	8DD|/	.	8DD|/	.	8dd\	.	8ff#\	.	8fff#'\	.
16r	.	16r	.	16r	.	16r	.	16r	.	16r	.	.	16r	.	.	16r	.	.	16r	.	.	16r	16r	.	16r	.	16r	.	16r	.	16r	.	16r	.	16r	.	16r	.	16r	.
*	*	*	*	*	*	*	*	*	*	*	*Xij	*	*	*	*	*	*	*	*	*ij	*	*	*	*	*	*	*	*	*	*	*	*	*	*	*	*	*	*	*	*
16D\	.	16d/	.	16f#|\ 16a	.	16a|\ 16ff#	.	16ddd'\	.	16d\	a-	.	16d\	a-	.	16a\	a-	.	16ff#|\	a-	.	16D\	16dd\	.	16ff#\	.	16A/	.	16A/	.	16D\	.	16D\	.	16dd\	.	16ff#|\	.	16fff#'\	.
!	!	!	!	!	!	!	!	!LO:LB:g=original	!	!	!	!	!	!	!	!	!	!	!	!	!	!	!	!	!	!	!	!	!	!	!	!	!	!	!	!	!	!	!	!
8AA/L	.	8c#|\L	.	8e|\L 8a	.	8a|\L 8ee	.	8ccc#'\L	.	8A\L	.	.	8c#\L	.	.	4a\	.	.	8ee|\L	.	.	8AA/L	8a\L	.	8ee\L	.	8A/L	.	8A/L	.	8AA/L	.	8AA|/L	.	8cc#\L	.	8ee|\L	.	8eee'\L	.
8D/J	.	8d|\J	.	8f#|\J 8a	.	8a|\J 8ff#	.	8ddd'\J	.	8d\J	.	.	8d\J	.	.	.	.	.	8ff#|\J	.	.	8D/J	8dd\J	.	8ff#\J	.	8A/J	.	8A/J	.	8D/J	.	8D|/J	.	8dd\J	.	8ff#|\J	.	8fff#'\J	.
!	!	!	!	!	!	!	!	!	!	!LO:LB:g=original	!	!	!	!	!	!	!	!	!	!	!	!	!	!	!	!	!	!	!LO:LB:g=original	!	!	!	!	!	!	!	!LO:LB:g=original	!	!	!
=54	=54	=54	=54	=54	=54	=54	=54	=54	=54	=54	=54	=54	=54	=54	=54	=54	=54	=54	=54	=54	=54	=54	=54	=54	=54	=54	=54	=54	=54	=54	=54	=54	=54	=54	=54	=54	=54	=54	=54	=54
8AA/	.	8c#/	.	8e\ 8a	.	8a|\ 8ff#	.	8ccc#'\	.	8A\	-men	.	8c#\	-men	.	8a\	-men	.	8ee\	-men	.	8AA/	8a/	.	8ee\	.	8A/	.	8A/	.	8AA/	.	8AA|/	.	8cc#\	.	8ee\	.	8eee'\	.
*	*	*	*	*	*	*	*	*	*	*	*	*	*	*	*	*	*	*	*	*Xij	*	*	*	*	*	*	*	*	*	*	*	*	*	*	*	*	*	*	*	*
16r	.	16r	.	16r	.	16r	.	16r	.	16r	.	.	16r	.	.	16r	.	.	16r	.	.	16r	16r	.	16r	.	16r	.	16r	.	16r	.	16r	.	16r	.	16r	.	16r	.
*	*	*	*	*	*	*	*	*	*	*	*	*	*	*	*	*	*ij	*	*	*ij	*	*	*	*	*	*	*	*	*	*	*	*	*	*	*	*	*	*	*	*
16AA/	.	16c#/	.	16e\ 16a	.	16a|\ 16ee	.	16aa'\	.	16A\	a-	.	16c#\	a-	.	16a\	a-	.	16ee|\	a-	.	16AA/	16a/	.	16ee\	.	16A/	.	16A/	.	16AA/	.	16AA|/	.	16cc#\	.	16ee|\	.	16eee'\	.
!	!	!	!	!LO:LB:g=original	!	!	!	!	!	!	!	!	!	!	!	!	!	!	!	!	!	!	!	!	!	!	!	!	!	!	!	!	!	!	!	!	!	!	!	!
8D/L	.	8d|/L	.	8f#\L 8a	.	(8a|\L 8ff#	.	8ddd'\L	.	8d\L	.	.	8d\L	.	.	4a\	.	.	8ff#|\L	.	.	8D/L	8dd\L	.	8ff#\L	.	8A/L	.	8A/L	.	8D/L	.	8D|/L	.	8dd\L	.	8ff#|\L	.	8fff#'\L	.
8AA/J	.	8c#|/J	.	8e\J 8a	.	8a|\J) 8ee	.	8aa'\J	.	8A\J	.	.	8c#\J	.	.	.	.	.	8ee|\J	.	.	8AA/J	8a\J	.	8ee\J	.	8A/J	.	8A/J	.	8AA/J	.	8AA|/J	.	8cc#\J	.	8ee|\J	.	8eee'\J	.
=55:|	=55	=55	=55	=55	=55	=55	=55	=55	=55	=55	=55	=55	=55	=55	=55	=55	=55	=55	=55	=55	=55	=55	=55	=55	=55	=55	=55	=55	=55	=55	=55	=55	=55	=55	=55	=55	=55	=55	=55	=55
!LO:TX:t=P:problem:rep	!	!	!	!	!	!	!	!	!	!	!	!	!	!	!	!	!	!	!	!	!	!	!	!	!	!	!	!	!	!	!	!	!	!	!	!	!	!	!	!
8DDyy/	.	8d/	.	8f#|\ 8a	.	8a|\ 8ff#	.	8ddd'\	.	8D/	-men	.	8d\	-men	.	8a\	-men-	.	8ff#\	-men	.	8D\	8dd\	.	8ff#\	.	8A/	.	8A/	.	8DD/	.	8DD/	.	8dd\	.	8ff#\	.	8fff#'\	.
*	*	*	*	*	*	*	*	*	*	*	*	*	*	*	*	*	*	*	*	*Xij	*	*	*	*	*	*	*	*	*	*	*	*	*	*	*	*	*	*	*	*
16ryy	.	16r	.	16r	.	16r	.	16r	.	16r	.	.	16r	.	.	16r	.	.	16r	.	.	16r	16r	.	16r	.	16r	.	16r	.	16r	.	16r	.	16r	.	16r	.	16r	.
!	!	!	!	!	!	!	!	!	!	!	!	!	!	!	!	!	!	!	!LO:LB:g=original	!	!	!	!	!	!	!	!	!	!	!	!	!	!	!	!	!	!	!	!	!
16Dyy\	.	16d|/	.	16f#|\ 16a	.	16a|\ 16ee	.	16aa'\	.	16A\	a-	.	16c#\	a-	.	16a\	-a-	.	16ee\	a-	.	16AA/	16a/	.	16ee\	.	16A/	.	16A/	.	16D\	.	16D\	.	16cc#\	.	16ee|\	.	16eee'\	.
!	!	!	!	!	!	!	!	!	!	!	!	!	!	!	!	!	!	!	!	!	!	!	!	!	!	!	!	!	!	!	!LO:LB:g=original	!	!	!	!	!	!	!	!	!
8AAyy/L	.	8d|/L	.	8f#|\L 8a	.	8a|\L 8ff#	.	8ddd'\L	.	8d\L	.	.	8d\L	.	.	4a\	.	.	8ff#\L	.	.	8D/L	8dd\L	.	8ff#\L	.	8A/L	.	8A/L	.	8AA/L	.	8AA/L	.	8dd\L	.	8ff#|\L	.	8fff#'\L	.
8Dyy/J	.	8c#|/J	.	8e|\J 8a	.	8a\J 8ee	.	8aa'\J	.	8A\J	.	.	8c#\J	.	.	.	.	.	8ee\J	.	.	8AA/J	8a\J	.	8ee\J	.	8A/J	.	8A/J	.	8D/J	.	8D/J	.	8cc#\J	.	8ee|\J	.	8eee'\J	.
=56	=56	=56	=56	=56	=56	=56	=56	=56	=56	=56	=56	=56	=56	=56	=56	=56	=56	=56	=56	=56	=56	=56	=56	=56	=56	=56	=56	=56	=56	=56	=56	=56	=56	=56	=56	=56	=56	=56	=56	=56
!	!	!	!	!	!	!	!	!	!	!	!	!	!LO:N:vis=16	!	!	!	!	!	!	!	!	!	!	!	!	!	!	!	!	!	!	!	!	!	!	!	!	!	!LO:TX:t=P:problem:pion	!
8AAyy/	.	8d/	.	8f#'\ 8a	.	8a|\ 8ff#	.	8ddd\	.	8D/	-men	.	8d\	-men	.	8a\	-men	.	8ff#\	-men	.	8D\	8dd\	.	8ff#\	.	8A/	.	8A/	.	8AA/	.	8AA/	.	8dd\	.	8ff#\	.	2ryy	.
16ryy	.	16r	.	16r	.	16r	.	16r	.	16r	.	.	16r	.	.	16r	.	.	16r	.	.	16r	16r	.	16r	.	16r	.	16r	.	16r	.	16r	.	16r	.	16r	.	.	.
*	*	*	*	*	*	*	*	*	*	*	*ij	*	*	*	*	*	*	*	*	*	*	*	*	*	*	*	*	*	*	*	*	*	*	*	*	*	*	*	*	*
16AAyy/	.	16c#|/	.	16e'\ 16a	.	16a|\ 16ee	.	16aa'\	.	16A\	a-	.	16c#\	a-	.	16a\	a-	.	16ee\	a-	.	16AA/	16a/	.	16ee\	.	16A/	.	16A/	.	16AA/	.	16AA/	.	16cc#\	.	16ee\	.	.	.
8Dyy/L	.	8d|/L	.	8f#'\L 8a	.	8a|\L 8ff#	.	8ddd'\L	.	8d\L	.	.	8d\L	.	.	4a\	.	.	8ff#\L	.	.	8D/L	8dd\L	.	8ff#\L	.	8A/L	.	8A/L	.	8D/L	.	8D/L	.	8dd\L	.	8ff#\L	.	.	.
8AAyy/J	.	8c#|/J	.	8e'\J 8a	.	8a|\J 8ee	.	8aa'\J	.	8A\J	.	.	8c#\J	.	.	.	.	.	8ee\J	.	.	8AA/J	8a\J	.	8ee\J	.	8A/J	.	8A/J	.	8AA/J	.	8AA/J	.	8cc#\J	.	8ee\J	.	.	.
!	!	!	!	!	!	!	!	!	!	!	!	!	!	!	!	!	!	!	!	!	!	!	!	!	!	!	!	!	!	!	!	!	!	!	!LO:LB:g=original	!	!	!	!	!
=57	=57	=57	=57	=57	=57	=57	=57	=57	=57	=57	=57	=57	=57	=57	=57	=57	=57	=57	=57	=57	=57	=57	=57	=57	=57	=57	=57	=57	=57	=57	=57	=57	=57	=57	=57	=57	=57	=57	=57	=57
8D/L	3	8d\L	.	8f#|\L 8a	.	8a|\L 8ff#	.	8ddd'\L	.	8D/	-men	.	8d\	-men	.	8a\	-men	.	8ff#\	-men	.	8D/	8f#/L	.	8dd\L	.	8A/L	.	8A/L	.	8DD/L	.	8DD/L	.	8dd|\L	.	8ff#|\L	.	8fff#'\L	.
*	*	*	*	*	*	*	*	*	*	*	*	*	*	*	*	*	*	*	*	*ij	*	*	*	*	*	*	*	*	*	*	*	*	*	*	*	*	*	*	*	*
8AA/	5	8c#\J	.	8e|\ 8a	.	8a|\ 8ee	.	8aa'\	.	8A\L	a-	.	8c#\L	a-	.	4.a\	a-	.	8ee\L	a-	.	8AA/L	8a/	.	8ee\	.	8A/	.	8A/	.	8AA|/J	.	8AA/J	.	8cc#|\	.	8ee|\	.	8eee'\	.
!	!	!LO:LB:g=original	!	!	!	!	!	!	!	!	!	!	!	!	!	!	!	!	!	!	!	!	!	!	!	!	!	!	!	!	!	!	!LO:LB:g=original	!	!	!	!	!	!	!
8DD/	8	8d|\L	.	8f#|\ 8a	.	8a|\ 8ff#	.	8ddd'\	.	8d\	.	.	8d\	.	.	.	.	.	8ff#\	.	.	8D/	8dd/	.	8ff#\	.	8A/	.	8A/	.	8D|\L	.	8D\L	.	8dd|\	.	8ff#|\	.	8fff#'\	.
8AA/J	3	8c#|\J	.	8e|\J 8a	.	8a|\J 8ee	.	8ccc#'\J	.	8A\J	.	.	8c#\J	.	.	.	.	.	8ee\J	.	.	8AA/J	8a/J	.	8ee\J	.	8A/J	.	8A/J	.	8A|\J	.	8A\J	.	8cc#|\J	.	8ee|\J	.	8eee'\J	.
!	!	!	!	!	!	!	!	!	!	!	!	!	!	!	!	!	!	!	!	!	!	!LO:LB:g=original	!	!	!	!	!	!	!	!	!	!	!	!	!	!	!	!	!	!
=58	=58	=58	=58	=58	=58	=58	=58	=58	=58	=58	=58	=58	=58	=58	=58	=58	=58	=58	=58	=58	=58	=58	=58	=58	=58	=58	=58	=58	=58	=58	=58	=58	=58	=58	=58	=58	=58	=58	=58	=58
*	*	*	*	*	*	*	*	*	*	*	*	*	*	*	*	*	*	*	*	*	*	*	*	*	*	*	*tremolo	*	*	*	*	*	*	*	*	*	*	*	*	*
!	!	!	!	!	!	!	!	!	!	!	!	!	!	!	!	!	!	!	!	!	!	!	!	!	!	!	!	!	!	!	!LO:TX:t=P:problem:mixed beam	!	!	!	!	!	!	!	!	!
8D/L	3	8d|\L	.	8f#|\L 8a	.	8a|\L 8ff#	.	(8ddd\L	.	8D/	-men	.	8d\	-men	.	8a\	-men	.	8ff#\	-men	.	8D\	8f#/L	.	8dd\L	.	8A/L	.	8A/L	.	8D|/L	.	8D\L	.	8dd|\L	.	8ff#|\L	.	8fff#'\L	.
*	*	*	*	*	*	*	*	*	*	*	*	*	*	*	*	*	*Xij	*	*	*Xij	*	*	*	*	*	*	*	*	*	*	*	*	*	*	*	*	*	*	*	*
8AA/	5	8c#|\	.	8e|\ 8a	.	8a|\ 8ee	.	8aa\)	.	8A\L	a-	.	8c#\L	a-	.	4.a\	a-	.	8ee\L	a-	.	8AA/L	8a/	.	8ee\	.	8A/	.	8A/	.	8AA|/	.	8AA\	.	8cc#|\	.	8ee|\J	.	8eee'\	.
8DD/	8	8d|\	.	8f#|\ 8a	.	8a|\ 8ff#	.	8ddd'\	.	8d\	.	.	8d\	.	.	.	.	.	8ff#\	.	.	8D/	8dd/	.	8ff#\	.	8A/	.	8A/	.	8D|/	.	8D\	.	8dd|\	.	8ff#|\L	.	8fff#'\	.
8AA/J	3	8c#|\J	.	8e|\J 8a	.	8a|\J 8ee	.	8ccc#'\J	.	8A\J	-men	.	8c#\J	-men	.	.	.	.	8ee\J	.	.	8AA/J	8a/J	.	8ee\J	.	8A/J	.	8A/J	.	8A|\J	.	8A\J	.	8cc#|\J	.	8ee|\J	.	8eee'\J	.
*	*	*	*	*	*	*	*	*	*	*	*Xij	*	*	*Xij	*	*	*	*	*	*	*	*	*	*	*	*	*	*	*	*	*	*	*	*	*	*	*	*	*	*
!	!	!	!	!	!	!	!	!	!	!	!	!	!	!	!	!	!	!	!	!	!	!	!LO:LB:g=original	!	!	!	!	!	!	!	!	!	!	!	!	!	!	!	!	!
=59	=59	=59	=59	=59	=59	=59	=59	=59	=59	=59	=59	=59	=59	=59	=59	=59	=59	=59	=59	=59	=59	=59	=59	=59	=59	=59	=59	=59	=59	=59	=59	=59	=59	=59	=59	=59	=59	=59	=59	=59
!	!	!	!	!	!	!	!	!	!	!	!	!	!	!	!	!	!	!	!	!	!	!	!	!	!	!	!	!	!	!	!LO:TX:t=P:problem:mixed beam	!	!	!	!	!	!	!	!	!
8D/L	3	8d|\L	.	8f#|\L 8a	.	8a|\L 8ff#	.	8ddd'\L	.	8D\L	a-	.	8d\L	a-	.	2a\	.	.	8ff#\L	.	.	8D/L	8f#/L	.	8dd\L	.	8A/L	.	8A/L	.	8D/L	.	8D\L	.	8dd|\L	.	8ff#|\L	.	8fff#'\L	.
8AA/	5	8c#|\	.	8e|\ 8a	.	8a|\ 8ee	.	8aa'\	.	8A\	.	.	8c#\	.	.	.	.	.	8ee\	.	.	8AA/	8a/	.	8ee\	.	8A/	.	8A/	.	8AA/	.	8AA\	.	8cc#|\	.	8ee|\	.	8eee'\	.
8DD/	8	8d|\	.	8f#|\ 8a	.	8a|\ 8ff#	.	8ddd'\	.	8d\	.	.	8d\	.	.	.	.	.	8ff#\	.	.	8D/	8dd/	.	8ff#\	.	8A/	.	8A/	.	8D/	.	8D\	.	8dd|\	.	8ff#|\	.	8fff#'\	.
8AA/J	3	8c#|\J	.	8e|\J 8a	.	8a|\J 8ee	.	8ccc#'\J	.	8A\J	.	.	8c#\J	.	.	.	.	.	8ee\J	.	.	8AA/J	8a/J	.	8ee\J	.	8A/J	.	8A/J	.	8A\J	.	8A\J	.	8cc#|\J	.	8ee|\J	.	8eee'\J	.
=60	=60	=60	=60	=60	=60	=60	=60	=60	=60	=60	=60	=60	=60	=60	=60	=60	=60	=60	=60	=60	=60	=60	=60	=60	=60	=60	=60	=60	=60	=60	=60	=60	=60	=60	=60	=60	=60	=60	=60	=60
!LO:TX:t=P:problem:mixed beam	!	!	!	!	!	!LO:TX:t=P:problem:mixed beam	!	!LO:TX:t=P:problem:mixed beam	!	!	!	!	!	!	!	!	!	!	!	!	!	!	!	!	!LO:TX:t=P:problem:mixed beam	!	!	!	!	!	!	!	!	!	!LO:TX:t=P:problem:mixed beam	!	!LO:TX:t=P:problem:mixed beam	!	!	!
8D\L	.	8d|\L	.	8d|\L 8a	.	8a|\L 8ff#	.	8ddd\L	.	4D/	-men	.	4d\	-men	.	4a\	-men	.	4ff#\	-men.	.	8D\L	8f#/L	.	8dd\L	.	8A/L	.	8A/L	.	8D\L	.	8D\L	.	8dd|\L	.	8ff#|\L	.	8fff#'\L	.
8DD/	.	8d|\	.	8d|\	.	8d'/	.	8d/	.	.	.	.	.	.	.	.	.	.	.	.	.	8D\	8d/	.	8d/	.	8D/J	.	8D/	.	8D\	.	8D\	.	8d|/	.	8d|/	.	8dd'\	.
8DD/	.	8d|\	.	8d|\	.	8d'/	.	8d/	.	4r	.	.	4r	.	.	4r	.	.	4r	.	.	8D\	8d/	.	8d/	.	8D/L	.	8D/	.	8D\	.	8D\	.	8d|/	.	8d|/	.	8dd'\	.
8DD/J	.	8d|\J	.	8d|\J	.	8d'/J	.	8d/J	.	.	.	.	.	.	.	.	.	.	.	.	.	8D\J	8d/J	.	8d/J	.	8D/J	.	8D/J	.	8D\J	.	8D\J	.	8d|/J	.	8d|/J	.	8dd'\J	.
!LO:LB:g=original	!	!	!	!	!	!	!	!	!	!	!	!	!	!	!	!	!	!	!	!	!	!	!	!	!	!	!	!	!	!	!	!	!	!	!	!	!	!	!	!
=61	=61	=61	=61	=61	=61	=61	=61	=61	=61	=61	=61	=61	=61	=61	=61	=61	=61	=61	=61	=61	=61	=61	=61	=61	=61	=61	=61	=61	=61	=61	=61	=61	=61	=61	=61	=61	=61	=61	=61	=61
*	*	*	*	*	*	*	*	*	*	*	*	*	*	*	*	*	*	*	*	*	*	*	*	*	*	*	*	*	*	*	*	*	*tremolo	*	*	*	*	*	*	*
!LO:TX:t=P:problem:mixed beam	!	!	!	!	!	!	!	!	!	!LO:TX:a:t=2.	!	!	!LO:TX:a:t=2.	!	!	!	!	!	!LO:TX:a:t=2.	!	!	!	!	!	!	!	!	!	!	!	!	!	!	!	!	!	!	!	!	!
8DD/L	.	8d|\L	.	8d|\L	.	8d'/L	.	8d/L	.	1r	.	.	1r	.	.	1r	.	.	1r	.	.	8D\L	8d/L	.	8d/L	.	8D/L	.	8D/L	.	8D\L	.	8D\L	.	8d|/L	.	8d/L	.	8dd'\L	.
8D\	.	8d|\	.	8d|\	.	8d'/	.	8d/	.	.	.	.	.	.	.	.	.	.	.	.	.	8D\	8d/	.	8d/J	.	8D/	.	8D/	.	8D\	.	8D\	.	8d|/	.	8d/	.	8dd'\	.
8D\	.	8d|\	.	8d|\	.	8d'/	.	8d/	.	.	.	.	.	.	.	.	.	.	.	.	.	8D\	8d/	.	8d/L	.	8D/	.	8D/	.	8D\	.	8D\	.	8d|/	.	8d/	.	8dd'\	.
8D\J	.	8d|\J	.	8d|\J	.	8d'/J	.	8d/J	.	.	.	.	.	.	.	.	.	.	.	.	.	8D\J	8d/J	.	8d/J	.	8D/J	.	8D/J	.	8D\J	.	8D\J	.	8d|/J	.	8d/J	.	8dd'\J	.
*	*	*	*	*	*	*	*	*	*	*	*	*	*	*	*	*	*	*	*	*	*	*	*	*	*	*	*	*	*	*	*	*	*Xtremolo	*	*	*	*	*	*	*
*	*	*	*	*	*	*	*	*	*	*	*	*	*	*	*	*	*	*	*	*	*	*	*	*	*	*	*Xtremolo	*	*	*	*	*	*	*	*	*	*	*	*	*
=62	=62	=62	=62	=62	=62	=62	=62	=62	=62	=62	=62	=62	=62	=62	=62	=62	=62	=62	=62	=62	=62	=62	=62	=62	=62	=62	=62	=62	=62	=62	=62	=62	=62	=62	=62	=62	=62	=62	=62	=62
2DD/ 2D	.	2d\	.	2d\	.	2d/	.	2d/	.	.	.	.	.	.	.	.	.	.	.	.	.	2D\	2d/	.	2d/	.	2D/	.	2D/	.	2DD/	.	2D\	.	2d/	.	2d/	.	2dd\	.
==	==	==	==	==	==	==	==	==	==	==	==	==	==	==	==	==	==	==	==	==	==	==	==	==	==	==	==	==	==	==	==	==	==	==	==	==	==	==	==	==
*-	*-	*-	*-	*-	*-	*-	*-	*-	*-	*-	*-	*-	*-	*-	*-	*-	*-	*-	*-	*-	*-	*-	*-	*-	*-	*-	*-	*-	*-	*-	*-	*-	*-	*-	*-	*-	*-	*-	*-	*-
!!!system-decoration: [(s1,s2,s3,s4,s5)][(s6,s7,s8,s9)][(s10)][(s11,s12,s13,s14)][(s15,s16,s17,s18)][(s19)]
!!!RDF**kern: < = above
!!!RDF**kern: > = below
!!!RDF**kern: | = vertical stroke
!!!ENC: Andrzej Gręziak
!!!END: 2020-10-24
!!!ENC: Urszula Świątek
!!!END: 2022-06-28
!!!YEC: Copyright 2022 Narodowy Instytut Fryderyka Chopina (https://polishscores.org)
!!!YEM: License CC-BY-4.0 (https://creativecommons.org/licenses/by/4.0)
